Resources/Cookup/luts/Brellow.cube
LUT_3D_SIZE 16
0.027534 0.027534 0.027534
0.055544 0.027534 0.027534
0.106564 0.027534 0.027534
0.161261 0.027534 0.027534
0.217512 0.027534 0.027534
0.274705 0.027534 0.027534
0.332579 0.027534 0.027534
0.391036 0.027534 0.027534
0.449956 0.027534 0.027534
0.509336 0.027534 0.027534
0.568541 0.027534 0.027534
0.627449 0.027534 0.027534
0.685833 0.027534 0.027534
0.743583 0.027534 0.027534
0.800770 0.027534 0.027534
0.856494 0.027534 0.027534
0.027534 0.055544 0.027534
0.050033 0.044473 -0.012320
0.105223 0.051482 0.018533
0.161225 0.055959 0.024896
0.217656 0.057950 0.026825
0.274705 0.059000 0.027534
0.332579 0.059472 0.027534
0.391036 0.059885 0.027534
0.449956 0.060240 0.027534
0.509336 0.060560 0.027534
0.568541 0.060804 0.027534
0.627449 0.060972 0.027534
0.685833 0.061081 0.027534
0.743583 0.061125 0.027534
0.800770 0.061125 0.027534
0.856494 0.061035 0.027534
0.027534 0.106564 0.027534
0.054354 0.101102 0.018886
0.105793 0.097521 -0.006502
0.162822 0.100808 -0.006210
0.220263 0.104844 0.014791
0.277636 0.108223 0.020658
0.335481 0.110427 0.023230
0.393810 0.112046 0.024743
0.452338 0.113291 0.025747
0.511236 0.114289 0.026397
0.569845 0.115027 0.026896
0.628039 0.115534 0.027289
0.685833 0.115828 0.027534
0.743583 0.115924 0.027534
0.800770 0.115931 0.027534
0.856494 0.115731 0.027534
0.027534 0.161261 0.027534
0.057002 0.159438 0.025119
0.109898 0.152155 -0.004999
0.164257 0.152978 0.007756
0.222738 0.156417 0.007957
0.282260 0.159057 0.007557
0.340773 0.162382 0.014897
0.398992 0.165322 0.019376
0.457684 0.167496 0.021566
0.516810 0.169234 0.022927
0.575669 0.170496 0.023919
0.634109 0.171404 0.024687
0.691813 0.171997 0.025298
0.748960 0.172290 0.025798
0.805366 0.172395 0.026212
0.860754 0.172156 0.026565
0.027534 0.217512 0.027534
0.058297 0.217108 0.027000
0.112104 0.210899 0.015899
0.168884 0.209397 0.009161
0.224287 0.209878 0.010554
0.283835 0.213471 0.011255
0.344078 0.216371 0.011928
0.405226 0.218934 0.011551
0.464497 0.221889 0.015375
0.523427 0.224520 0.018425
0.582263 0.226437 0.020296
0.640801 0.227778 0.021616
0.698655 0.228693 0.022623
0.755989 0.229195 0.023420
0.812454 0.229440 0.024077
0.868793 0.229176 0.024632
0.027534 0.274705 0.027534
0.059000 0.274705 0.027534
0.113159 0.270697 0.021480
0.172640 0.266894 0.010637
0.229212 0.267588 0.012550
0.285518 0.267941 0.012609
0.345887 0.271634 0.012584
0.406807 0.274716 0.012503
0.468425 0.277475 0.012267
0.530970 0.280064 0.011796
0.590179 0.282535 0.015116
0.648408 0.284372 0.017704
0.706239 0.285641 0.019403
0.763511 0.286396 0.020651
0.820071 0.286763 0.021635
0.877325 0.286511 0.022464
0.027534 0.332579 0.027534
0.059472 0.332579 0.027534
0.113969 0.330128 0.023747
0.173932 0.326878 0.016221
0.233211 0.326117 0.012140
0.290531 0.326644 0.012584
0.347613 0.326973 0.012596
0.408762 0.330797 0.012611
0.470284 0.333992 0.012625
0.532444 0.336905 0.012568
0.594704 0.339351 0.012367
0.657000 0.341330 0.011954
0.714883 0.342893 0.014937
0.771831 0.343840 0.017178
0.828327 0.344360 0.018725
0.886302 0.344079 0.019955
0.027534 0.391036 0.027534
0.059885 0.391036 0.027534
0.114595 0.389636 0.025026
0.174449 0.387416 0.019780
0.236816 0.385522 0.011541
0.294780 0.386083 0.012535
0.352798 0.386527 0.012629
0.410525 0.386826 0.012636
0.472322 0.390719 0.012641
0.534525 0.394092 0.012649
0.596530 0.396761 0.012649
0.658409 0.398845 0.012589
0.720072 0.400531 0.012399
0.781203 0.401745 0.012041
0.837532 0.402295 0.014784
0.895780 0.401911 0.016859
0.027534 0.449956 0.027534
0.060240 0.449956 0.027534
0.115066 0.449247 0.025903
0.174919 0.447762 0.021780
0.237550 0.446426 0.015766
0.298545 0.446186 0.012290
0.357179 0.446669 0.012647
0.415763 0.447152 0.012649
0.474047 0.447459 0.012649
0.536543 0.451468 0.012649
0.598652 0.454452 0.012649
0.660506 0.456743 0.012641
0.721844 0.458486 0.012633
0.782519 0.459594 0.012564
0.842747 0.460299 0.012376
0.906170 0.459966 0.012268
0.027534 0.509336 0.027534
0.060560 0.509336 0.027534
0.115440 0.509052 0.026545
0.175330 0.508252 0.023118
0.237767 0.507566 0.018698
0.302145 0.507129 0.011779
0.361158 0.507562 0.012573
0.420347 0.508018 0.012650
0.479464 0.508516 0.012649
0.538312 0.508879 0.012642
0.600703 0.512358 0.012635
0.662511 0.514816 0.012622
0.723588 0.516475 0.012607
0.784021 0.517521 0.012585
0.843889 0.518074 0.012564
0.907022 0.517534 0.012529
0.027534 0.568541 0.027534
0.060804 0.568541 0.027534
0.115650 0.568493 0.027036
0.175531 0.568248 0.024093
0.237845 0.568140 0.020515
0.302180 0.568191 0.015472
0.364553 0.568487 0.012332
0.424016 0.568861 0.012631
0.483652 0.569306 0.012627
0.543070 0.569722 0.012617
0.602223 0.570006 0.012605
0.664137 0.572696 0.012590
0.725193 0.574416 0.012568
0.785442 0.575347 0.012543
0.845099 0.575815 0.012511
0.908127 0.575044 0.012480
0.027534 0.627449 0.027534
0.060972 0.627449 0.027534
0.115700 0.627458 0.027423
0.175476 0.627692 0.024845
0.237625 0.628000 0.021802
0.301492 0.628371 0.017952
0.367279 0.628959 0.011844
0.426790 0.629169 0.012521
0.486580 0.629490 0.012579
0.546312 0.629820 0.012572
0.605866 0.630157 0.012553
0.665220 0.630378 0.012532
0.726417 0.632235 0.012510
0.786520 0.633184 0.012480
0.846100 0.633520 0.012447
0.908896 0.632471 0.012409
0.027534 0.685833 0.027534
0.061081 0.685833 0.027534
0.115828 0.685833 0.027534
0.175233 0.686255 0.025447
0.237100 0.686832 0.022785
0.300591 0.687407 0.019591
0.365681 0.688176 0.015215
0.428780 0.688704 0.012247
0.488592 0.688851 0.012511
0.548438 0.689118 0.012499
0.608164 0.689377 0.012481
0.667802 0.689588 0.012461
0.727143 0.689763 0.012435
0.787335 0.690556 0.012398
0.846795 0.690884 0.012366
0.909445 0.689617 0.012329
0.027534 0.743583 0.027534
0.061125 0.743583 0.027534
0.115924 0.743583 0.027534
0.174789 0.744111 0.025940
0.236340 0.744785 0.023567
0.299437 0.745513 0.020804
0.363782 0.746299 0.017356
0.429902 0.747184 0.011958
0.489756 0.747326 0.012359
0.549606 0.747459 0.012410
0.609343 0.747618 0.012394
0.668999 0.747650 0.012366
0.728311 0.747762 0.012340
0.787740 0.747917 0.012306
0.847156 0.748154 0.012266
0.909698 0.746750 0.012224
0.027534 0.800770 0.027534
0.061125 0.800770 0.027534
0.115931 0.800770 0.027534
0.174238 0.801169 0.026349
0.235424 0.801939 0.024206
0.298081 0.802709 0.021761
0.361899 0.803455 0.018849
0.427043 0.804333 0.014938
0.490317 0.804801 0.012048
0.549973 0.804834 0.012299
0.609717 0.804907 0.012282
0.669402 0.804966 0.012255
0.728670 0.805002 0.012223
0.787979 0.805007 0.012187
0.847223 0.805043 0.012148
0.909584 0.803305 0.012107
0.027534 0.856494 0.027534
0.061035 0.856494 0.027534
0.115731 0.856494 0.027534
0.173537 0.859742 0.026268
0.234502 0.866708 0.023094
0.297047 0.873625 0.018978
0.360851 0.880492 0.012661
0.425770 0.887305 -0.010899
0.492201 0.894081 -0.018589
0.552284 0.894438 -0.018956
0.611828 0.894457 -0.019065
0.671320 0.894445 -0.019155
0.730456 0.894343 -0.019219
0.789826 0.894194 -0.019259
0.848799 0.894102 -0.019276
0.912790 0.893926 -0.019292
0.027534 0.027534 0.055544
0.055544 0.027534 0.055544
0.106564 0.027534 0.056808
0.161261 0.027534 0.057728
0.217512 0.027534 0.058433
0.274705 0.027534 0.059000
0.332579 0.027534 0.059472
0.391036 0.027534 0.059885
0.449956 0.027534 0.060240
0.509336 0.027534 0.060560
0.568541 0.027534 0.060804
0.627449 0.027534 0.060972
0.685833 0.027534 0.061081
0.743583 0.027534 0.061125
0.800770 0.027534 0.061125
0.856494 0.027534 0.061035
0.027534 0.055544 0.055544
0.055544 0.055544 0.055544
0.106564 0.055544 0.055544
0.161261 0.055544 0.055544
0.217512 0.055544 0.055544
0.274705 0.055544 0.055544
0.332579 0.055544 0.055544
0.391036 0.055544 0.055544
0.449956 0.055544 0.055544
0.509336 0.055544 0.055544
0.568541 0.055544 0.055544
0.627449 0.055544 0.055544
0.685833 0.055544 0.055544
0.743583 0.055544 0.055544
0.800770 0.055544 0.055544
0.856494 0.055544 0.055544
0.027534 0.106564 0.056808
0.055544 0.106564 0.055544
0.106276 0.097324 -0.020297
0.163750 0.100214 0.010397
0.219697 0.105474 0.042155
0.276530 0.108135 0.048633
0.333986 0.109880 0.051847
0.391887 0.111156 0.053819
0.450218 0.112140 0.055170
0.509336 0.112795 0.055544
0.568541 0.113223 0.055544
0.627449 0.113527 0.055544
0.685833 0.113709 0.055544
0.743583 0.113788 0.055544
0.800770 0.113783 0.055544
0.856494 0.113622 0.055544
0.027534 0.161261 0.057728
0.055544 0.161261 0.055544
0.108519 0.152906 0.013011
0.164524 0.152960 0.010288
0.223367 0.155868 0.006448
0.282587 0.158498 0.013960
0.339642 0.162267 0.035069
0.397536 0.164889 0.041917
0.455951 0.166850 0.045829
0.514814 0.168413 0.048454
0.573388 0.169561 0.050361
0.631617 0.170366 0.051811
0.689171 0.170889 0.052942
0.746236 0.171154 0.053843
0.802377 0.171209 0.054577
0.857268 0.170955 0.055178
0.027534 0.217512 0.058433
0.055544 0.217512 0.055544
0.109734 0.213523 0.042643
0.168346 0.209367 0.006524
0.224426 0.209934 0.015083
0.284170 0.213157 0.014601
0.344571 0.215825 0.012437
0.405075 0.218458 0.017718
0.462989 0.221573 0.032313
0.521713 0.224021 0.038538
0.580329 0.225805 0.042402
0.638657 0.227064 0.045144
0.696360 0.227915 0.047216
0.753450 0.228378 0.048853
0.809770 0.228568 0.050174
0.865648 0.228306 0.051271
0.027534 0.274705 0.059000
0.055544 0.274705 0.055544
0.110674 0.272636 0.049070
0.171173 0.267434 0.017171
0.228875 0.267611 0.015203
0.285607 0.267985 0.016737
0.346065 0.271432 0.017168
0.407133 0.274407 0.017177
0.468853 0.276974 0.016467
0.530286 0.279662 0.020911
0.588391 0.282112 0.031488
0.646524 0.283879 0.036927
0.704139 0.285081 0.040537
0.761183 0.285754 0.043208
0.817643 0.286102 0.045296
0.874389 0.285815 0.047028
0.027534 0.332579 0.059472
0.055544 0.332579 0.055544
0.111374 0.331579 0.052248
0.171451 0.328035 0.036164
0.232699 0.326115 0.014392
0.290313 0.326679 0.018005
0.347677 0.326998 0.018558
0.408883 0.330698 0.019193
0.470444 0.333712 0.019836
0.532723 0.336624 0.020245
0.595036 0.338947 0.020221
0.655819 0.340938 0.024058
0.712936 0.342420 0.031898
0.769805 0.343341 0.036524
0.826124 0.343856 0.039786
0.883626 0.343516 0.042381
0.027534 0.391036 0.059885
0.055544 0.391036 0.055544
0.111889 0.390666 0.054180
0.171938 0.388232 0.042843
0.235254 0.385899 0.021547
0.294443 0.386096 0.019093
0.352691 0.386570 0.020196
0.410556 0.386859 0.020679
0.472368 0.390575 0.021377
0.534591 0.393912 0.022148
0.596643 0.396472 0.022927
0.658574 0.398542 0.023539
0.720334 0.400256 0.023880
0.779686 0.401323 0.027231
0.835410 0.401814 0.033128
0.893321 0.401405 0.037183
0.027534 0.449956 0.060240
0.055544 0.449956 0.055544
0.112256 0.449957 0.055462
0.172383 0.448370 0.046695
0.235201 0.446893 0.034329
0.298139 0.446188 0.019839
0.356915 0.446685 0.021925
0.415638 0.447158 0.022466
0.474075 0.447477 0.022991
0.536597 0.451384 0.023742
0.598697 0.454303 0.024534
0.660555 0.456580 0.025372
0.721844 0.458274 0.026204
0.782581 0.459343 0.026912
0.842975 0.460061 0.027447
0.904017 0.459578 0.030650
0.027534 0.509336 0.060560
0.055544 0.509336 0.055544
0.112795 0.509336 0.055544
0.172761 0.508604 0.049283
0.235434 0.507834 0.040288
0.300478 0.507303 0.025708
0.360904 0.507555 0.023570
0.420202 0.508038 0.024414
0.479402 0.508530 0.024905
0.538338 0.508892 0.025463
0.600725 0.512338 0.026212
0.662533 0.514681 0.026996
0.723614 0.516332 0.027817
0.784033 0.517319 0.028692
0.843942 0.517885 0.029608
0.907126 0.517360 0.030040
0.027534 0.568541 0.060804
0.055544 0.568541 0.055544
0.113223 0.568541 0.055544
0.172943 0.568343 0.051145
0.235478 0.568209 0.044063
0.299979 0.568233 0.034743
0.364331 0.568505 0.025005
0.423814 0.568874 0.026391
0.483507 0.569313 0.026900
0.543047 0.569727 0.027417
0.602234 0.570013 0.027998
0.664143 0.572654 0.028772
0.725196 0.574343 0.029600
0.785438 0.575236 0.030168
0.845096 0.575685 0.030098
0.908124 0.574920 0.030067
0.027534 0.627449 0.060972
0.055544 0.627449 0.055544
0.113527 0.627449 0.055544
0.172886 0.627592 0.052534
0.235278 0.627878 0.046752
0.299341 0.628305 0.039827
0.365358 0.628857 0.029992
0.426547 0.629184 0.028323
0.486438 0.629493 0.029043
0.546212 0.629819 0.029545
0.605820 0.630158 0.030135
0.665225 0.630383 0.030147
0.726417 0.632223 0.030101
0.786518 0.633039 0.030069
0.846097 0.633378 0.030062
0.908895 0.632388 0.030062
0.027534 0.685833 0.061081
0.055544 0.685833 0.055544
0.113709 0.685833 0.055544
0.172644 0.686005 0.053584
0.234807 0.686604 0.048785
0.298500 0.687237 0.043302
0.363651 0.688032 0.036408
0.428692 0.688732 0.029441
0.488412 0.688855 0.030084
0.548296 0.689118 0.030100
0.608086 0.689378 0.030076
0.667790 0.689589 0.030062
0.727149 0.689766 0.030061
0.787336 0.690570 0.030061
0.846795 0.690863 0.030059
0.909445 0.689571 0.030055
0.027534 0.743583 0.061125
0.055544 0.743583 0.055544
0.113788 0.743583 0.055544
0.172243 0.743847 0.054335
0.234030 0.744557 0.050054
0.297323 0.745306 0.045217
0.361835 0.746132 0.039499
0.427948 0.747053 0.031769
0.489571 0.747347 0.029820
0.549389 0.747458 0.030062
0.609190 0.747617 0.030062
0.668869 0.747649 0.030060
0.728332 0.747762 0.030055
0.787738 0.747914 0.030051
0.847156 0.748175 0.030042
0.909698 0.746682 0.030030
0.027534 0.800770 0.061125
0.055544 0.800770 0.055544
0.113783 0.800770 0.055544
0.171739 0.800836 0.054943
0.233157 0.801608 0.051087
0.295972 0.802411 0.046787
0.359996 0.803248 0.041848
0.425118 0.804170 0.035781
0.490252 0.804834 0.029392
0.549835 0.804839 0.030001
0.609601 0.804907 0.030046
0.669174 0.804966 0.030040
0.728720 0.805002 0.030030
0.788065 0.805005 0.030021
0.847224 0.805044 0.030009
0.909585 0.803271 0.029992
0.027534 0.856494 0.061035
0.055544 0.856494 0.055544
0.113622 0.856494 0.055544
0.171044 0.856655 0.055417
0.232178 0.863935 0.050136
0.294785 0.871123 0.043641
0.358670 0.878268 0.035054
0.423671 0.885335 0.020793
0.490139 0.892380 -0.025675
0.552088 0.894448 -0.030445
0.611669 0.894457 -0.030640
0.671223 0.894445 -0.030845
0.730457 0.894343 -0.030982
0.789701 0.894194 -0.031052
0.848758 0.894102 -0.031057
0.912791 0.893928 -0.031027
0.027534 0.027534 0.106564
0.056808 0.027534 0.106564
0.106564 0.027534 0.106564
0.161261 0.027534 0.108569
0.217512 0.027534 0.110108
0.274705 0.027534 0.111338
0.332579 0.027534 0.112364
0.391036 0.027534 0.113258
0.449956 0.027534 0.114022
0.509336 0.027534 0.114712
0.568541 0.027534 0.115237
0.627449 0.027534 0.115605
0.685833 0.027534 0.115828
0.743583 0.027534 0.115924
0.800770 0.027534 0.115931
0.856494 0.027534 0.115731
0.027534 0.056808 0.106564
0.055544 0.055544 0.106564
0.106564 0.055544 0.106564
0.161261 0.055544 0.107982
0.217512 0.055544 0.109130
0.274705 0.055544 0.110089
0.332579 0.055544 0.110903
0.391036 0.055544 0.111614
0.449956 0.055544 0.112236
0.509336 0.055544 0.112795
0.568541 0.055544 0.113223
0.627449 0.055544 0.113527
0.685833 0.055544 0.113709
0.743583 0.055544 0.113788
0.800770 0.055544 0.113783
0.856494 0.055544 0.113622
0.027534 0.106564 0.106564
0.055544 0.106564 0.106564
0.106564 0.106564 0.106564
0.161261 0.106564 0.106564
0.217512 0.106564 0.106564
0.274705 0.106564 0.106564
0.332579 0.106564 0.106564
0.391036 0.106564 0.106564
0.449956 0.106564 0.106564
0.509336 0.106564 0.106564
0.568541 0.106564 0.106564
0.627449 0.106564 0.106564
0.685833 0.106564 0.106564
0.743583 0.106564 0.106564
0.800770 0.106564 0.106564
0.856494 0.106564 0.106564
0.027534 0.161261 0.108569
0.055544 0.161261 0.107982
0.106564 0.161261 0.106564
0.165836 0.152621 -0.007699
0.225930 0.154270 0.033882
0.280398 0.159166 0.081506
0.336620 0.161759 0.093161
0.393816 0.163575 0.099083
0.451618 0.164950 0.102797
0.509923 0.166070 0.105374
0.568541 0.166756 0.106564
0.627449 0.167096 0.106564
0.685833 0.167286 0.106564
0.743583 0.167365 0.106564
0.800770 0.167357 0.106564
0.856494 0.167140 0.106564
0.027534 0.217512 0.110108
0.055544 0.217512 0.109130
0.106564 0.217512 0.106564
0.165841 0.210090 0.033019
0.225247 0.210011 0.034155
0.286073 0.212056 0.029851
0.346711 0.213920 0.030897
0.402877 0.217488 0.067364
0.460203 0.220000 0.080014
0.518304 0.222009 0.087293
0.576380 0.223491 0.092228
0.634175 0.224552 0.095877
0.691455 0.225249 0.098675
0.748171 0.225630 0.100894
0.804195 0.225793 0.102696
0.859098 0.225568 0.104203
0.027534 0.274705 0.111338
0.055544 0.274705 0.110089
0.106564 0.274705 0.106564
0.165023 0.271258 0.081669
0.227710 0.267847 0.027128
0.286102 0.268143 0.035053
0.347262 0.270777 0.033280
0.408829 0.273018 0.028872
0.470250 0.275195 0.032493
0.527612 0.278178 0.060712
0.585337 0.280300 0.072602
0.642981 0.281806 0.079995
0.700206 0.282806 0.085222
0.756877 0.283405 0.089220
0.812906 0.283676 0.092389
0.868725 0.283407 0.095028
0.027534 0.332579 0.112364
0.055544 0.332579 0.110903
0.106564 0.332579 0.106564
0.165272 0.330834 0.093583
0.229766 0.326717 0.032454
0.289586 0.326917 0.032437
0.348065 0.327130 0.034061
0.409660 0.330226 0.033771
0.471610 0.332808 0.032585
0.534228 0.335222 0.029640
0.595850 0.337331 0.034569
0.652798 0.339275 0.057135
0.709645 0.340605 0.068005
0.766105 0.341354 0.075130
0.822113 0.341760 0.080353
0.878736 0.341385 0.084603
0.027534 0.391036 0.113258
0.055544 0.391036 0.111614
0.106564 0.391036 0.106564
0.165707 0.390257 0.099608
0.228982 0.387629 0.068133
0.292891 0.386365 0.027661
0.352163 0.386779 0.033632
0.410888 0.386990 0.033867
0.472963 0.390264 0.033969
0.535396 0.393166 0.034011
0.597695 0.395461 0.033362
0.659965 0.397332 0.031393
0.720572 0.398748 0.037069
0.776299 0.399660 0.055305
0.831889 0.400062 0.065130
0.889058 0.399604 0.072145
0.027534 0.449956 0.114022
0.055544 0.449956 0.112236
0.106564 0.449956 0.106564
0.166080 0.449675 0.103368
0.228871 0.448081 0.080796
0.295204 0.446673 0.035811
0.355785 0.446926 0.032671
0.415255 0.447306 0.034235
0.474342 0.447580 0.034406
0.537063 0.451133 0.034682
0.599340 0.453798 0.035011
0.661265 0.455816 0.035272
0.722851 0.457332 0.034979
0.783798 0.458241 0.033662
0.842719 0.458716 0.039635
0.900021 0.457964 0.055176
0.027534 0.509336 0.114712
0.055544 0.509336 0.112795
0.106564 0.509336 0.106564
0.166392 0.509289 0.105954
0.229051 0.508532 0.088117
0.294446 0.507957 0.062321
0.359356 0.507811 0.030324
0.419280 0.508230 0.034769
0.479112 0.508652 0.035188
0.538548 0.508991 0.035452
0.601091 0.512096 0.035845
0.662998 0.514275 0.036267
0.724233 0.515764 0.036736
0.784780 0.516608 0.037114
0.844802 0.517052 0.037041
0.908142 0.516393 0.036786
0.027534 0.568541 0.115237
0.055544 0.568541 0.113223
0.106564 0.568541 0.106564
0.166756 0.568541 0.106564
0.229076 0.568457 0.093079
0.293961 0.568500 0.074003
0.361318 0.568773 0.039156
0.422607 0.569098 0.034831
0.482818 0.569463 0.036216
0.542780 0.569844 0.036510
0.602428 0.570088 0.036845
0.664410 0.572479 0.037285
0.725659 0.574009 0.037762
0.785929 0.574749 0.038262
0.845707 0.575100 0.038811
0.908640 0.574205 0.039420
0.027534 0.627449 0.115605
0.055544 0.627449 0.113527
0.106564 0.627449 0.106564
0.167096 0.627449 0.106564
0.228891 0.627764 0.096716
0.293346 0.628214 0.081328
0.359688 0.628839 0.059687
0.425243 0.629442 0.033857
0.485470 0.629680 0.037258
0.545687 0.629990 0.037724
0.605675 0.630281 0.038064
0.665406 0.630443 0.038443
0.726605 0.632041 0.038926
0.786889 0.632844 0.039430
0.846499 0.633013 0.039955
0.909362 0.631935 0.040533
0.027534 0.685833 0.115828
0.055544 0.685833 0.113709
0.106564 0.685833 0.106564
0.167286 0.685833 0.106564
0.228515 0.686228 0.099490
0.292526 0.686979 0.086518
0.358118 0.687801 0.070154
0.425621 0.688763 0.042676
0.487306 0.689076 0.037859
0.547607 0.689240 0.039073
0.607658 0.689500 0.039410
0.667613 0.689630 0.039785
0.727298 0.689822 0.040204
0.787567 0.690496 0.040690
0.847052 0.690601 0.041211
0.909776 0.689218 0.041765
0.027534 0.743583 0.115924
0.055544 0.743583 0.113788
0.106564 0.743583 0.106564
0.167365 0.743583 0.106564
0.227952 0.744057 0.101676
0.291525 0.744883 0.090486
0.356441 0.745790 0.077115
0.422840 0.746709 0.058855
0.488469 0.747518 0.037675
0.548547 0.747618 0.040356
0.608602 0.747605 0.040839
0.668647 0.747702 0.041204
0.728237 0.747866 0.041620
0.787878 0.747937 0.042068
0.847264 0.747999 0.042558
0.909952 0.746523 0.043086
0.027534 0.800770 0.115931
0.055544 0.800770 0.113783
0.106564 0.800770 0.106564
0.167357 0.800770 0.106564
0.227330 0.801030 0.103421
0.290375 0.801963 0.093618
0.354717 0.802802 0.082258
0.420216 0.803814 0.068139
0.487274 0.804783 0.046179
0.548947 0.805031 0.041296
0.608828 0.805023 0.042356
0.668757 0.805055 0.042703
0.728377 0.805063 0.043088
0.787914 0.805041 0.043513
0.847299 0.805087 0.043993
0.909725 0.803161 0.044485
0.027534 0.856494 0.115731
0.055544 0.856494 0.113622
0.106564 0.856494 0.106564
0.167140 0.856494 0.106564
0.226449 0.858144 0.104563
0.289147 0.866019 0.093928
0.353208 0.873746 0.080909
0.418514 0.881457 0.063387
0.485040 0.889009 0.030201
0.551036 0.894651 -0.046997
0.610767 0.894554 -0.046207
0.670606 0.894465 -0.046166
0.729998 0.894450 -0.045977
0.789591 0.894275 -0.045630
0.848652 0.894159 -0.045138
0.912901 0.893963 -0.044482
0.027534 0.027534 0.161261
0.057728 0.027534 0.161261
0.108569 0.027534 0.161261
0.161261 0.027534 0.161261
0.217512 0.027534 0.163605
0.274705 0.027534 0.165481
0.332579 0.027534 0.167032
0.391036 0.027534 0.168394
0.449956 0.027534 0.169559
0.509336 0.027534 0.170587
0.568541 0.027534 0.171393
0.627449 0.027534 0.171953
0.685833 0.027534 0.172299
0.743583 0.027534 0.172452
0.800770 0.027534 0.172450
0.856494 0.027534 0.172163
0.027534 0.057728 0.161261
0.055544 0.055544 0.161261
0.107982 0.055544 0.161261
0.161261 0.055544 0.161261
0.217512 0.055544 0.163262
0.274705 0.055544 0.164918
0.332579 0.055544 0.166309
0.391036 0.055544 0.167534
0.449956 0.055544 0.168602
0.509336 0.055544 0.169550
0.568541 0.055544 0.170290
0.627449 0.055544 0.170807
0.685833 0.055544 0.171123
0.743583 0.055544 0.171261
0.800770 0.055544 0.171253
0.856494 0.055544 0.170950
0.027534 0.108569 0.161261
0.055544 0.107982 0.161261
0.106564 0.106564 0.161261
0.161261 0.106564 0.161261
0.217512 0.106564 0.162364
0.274705 0.106564 0.163340
0.332579 0.106564 0.164193
0.391036 0.106564 0.164977
0.449956 0.106564 0.165650
0.509336 0.106564 0.166272
0.568541 0.106564 0.166756
0.627449 0.106564 0.167096
0.685833 0.106564 0.167286
0.743583 0.106564 0.167365
0.800770 0.106564 0.167357
0.856494 0.106564 0.167140
0.027534 0.161261 0.161261
0.055544 0.161261 0.161261
0.106564 0.161261 0.161261
0.161261 0.161261 0.161261
0.217512 0.161261 0.161261
0.274705 0.161261 0.161261
0.332579 0.161261 0.161261
0.391036 0.161261 0.161261
0.449956 0.161261 0.161261
0.509336 0.161261 0.161261
0.568541 0.161261 0.161261
0.627449 0.161261 0.161261
0.685833 0.161261 0.161261
0.743583 0.161261 0.161261
0.800770 0.161261 0.161261
0.856494 0.161261 0.161261
0.027534 0.217512 0.163605
0.055544 0.217512 0.163262
0.106564 0.217512 0.162364
0.161261 0.217512 0.161261
0.226968 0.209601 0.062418
0.288885 0.210546 0.073614
0.341829 0.214874 0.127228
0.397441 0.217236 0.142652
0.454213 0.218930 0.150725
0.511790 0.220333 0.155875
0.569411 0.221406 0.159542
0.627449 0.222015 0.161261
0.685833 0.222212 0.161261
0.743583 0.222258 0.161261
0.800770 0.222217 0.161261
0.856494 0.221987 0.161261
0.027534 0.274705 0.165481
0.055544 0.274705 0.164918
0.106564 0.274705 0.163340
0.161261 0.274705 0.161261
0.225335 0.268650 0.070054
0.287293 0.268258 0.070390
0.349975 0.269543 0.065297
0.412136 0.270742 0.064207
0.467239 0.273761 0.106465
0.523972 0.276044 0.123407
0.580995 0.277728 0.133463
0.638010 0.278948 0.140400
0.694659 0.279809 0.145595
0.750876 0.280325 0.149634
0.806441 0.280609 0.152866
0.861153 0.280455 0.155525
0.027534 0.332579 0.167032
0.055544 0.332579 0.166309
0.106564 0.332579 0.164193
0.161261 0.332579 0.161261
0.221948 0.330066 0.126372
0.288359 0.327396 0.060559
0.348919 0.327344 0.067006
0.411601 0.329396 0.064136
0.474507 0.331071 0.058615
0.536993 0.332781 0.060458
0.592959 0.335069 0.095498
0.649411 0.336629 0.111902
0.705771 0.337706 0.122273
0.761693 0.338318 0.129736
0.817136 0.338652 0.135494
0.872709 0.338385 0.140220
0.027534 0.391036 0.168394
0.055544 0.391036 0.167534
0.106564 0.391036 0.164977
0.161261 0.391036 0.161261
0.221336 0.389947 0.142608
0.289207 0.387245 0.061752
0.351274 0.387243 0.061587
