Resources/Cookup/luts/Brellow.cube
LUT_3D_SIZE 6
0.027534 0.027534 0.027534
0.161261 0.027534 0.027534
0.332579 0.027534 0.027534
0.509336 0.027534 0.027534
0.685833 0.027534 0.027534
0.856494 0.027534 0.027534
0.027534 0.161261 0.027534
0.164257 0.152978 0.007756
0.340773 0.162382 0.014897
0.516810 0.169234 0.022927
0.691813 0.171997 0.025298
0.860754 0.172156 0.026565
0.027534 0.332579 0.027534
0.173932 0.326878 0.016221
0.347613 0.326973 0.012596
0.532444 0.336905 0.012568
0.714883 0.342893 0.014937
0.886302 0.344079 0.019955
0.027534 0.509336 0.027534
0.175330 0.508252 0.023118
0.361158 0.507562 0.012573
0.538312 0.508879 0.012642
0.723588 0.516475 0.012607
0.907022 0.517534 0.012529
0.027534 0.685833 0.027534
0.175233 0.686255 0.025447
0.365681 0.688176 0.015215
0.548438 0.689118 0.012499
0.727143 0.689763 0.012435
0.909445 0.689617 0.012329
0.027534 0.856494 0.027534
0.173537 0.859742 0.026268
0.360851 0.880492 0.012661
0.552284 0.894438 -0.018956
0.730456 0.894343 -0.019219
0.912790 0.893926 -0.019292
0.027534 0.027534 0.161261
0.161261 0.027534 0.161261
0.332579 0.027534 0.167032
0.509336 0.027534 0.170587
0.685833 0.027534 0.172299
0.856494 0.027534 0.172163
0.027534 0.161261 0.161261
0.161261 0.161261 0.161261
0.332579 0.161261 0.161261
0.509336 0.161261 0.161261
0.685833 0.161261 0.161261
0.856494 0.161261 0.161261
0.027534 0.332579 0.167032
0.161261 0.332579 0.161261
0.348919 0.327344 0.067006
0.536993 0.332781 0.060458
0.705771 0.337706 0.122273
0.872709 0.338385 0.140220
0.027534 0.509336 0.170587
0.161261 0.509336 0.161261
0.355261 0.508553 0.060449
0.539103 0.509122 0.057913
0.725793 0.514610 0.056912
0.908630 0.514398 0.061790
0.027534 0.685833 0.172299
0.161261 0.685833 0.161261
0.350284 0.687628 0.123077
0.546043 0.689617 0.056507
0.727613 0.689885 0.056904
0.910758 0.688669 0.057297
0.027534 0.856494 0.172163
0.161261 0.856494 0.161261
0.345824 0.868231 0.138336
0.546524 0.893290 -0.046436
0.729173 0.894680 -0.062156
0.913167 0.894010 -0.061467
0.027534 0.027534 0.332579
0.167032 0.027534 0.332579
0.332579 0.027534 0.332579
0.509336 0.027534 0.339739
0.685833 0.027534 0.343179
0.856494 0.027534 0.342894
0.027534 0.167032 0.332579
0.161261 0.161261 0.332579
0.332579 0.161261 0.332579
0.509336 0.161261 0.337428
0.685833 0.161261 0.339764
0.856494 0.161261 0.339255
0.027534 0.332579 0.332579
0.161261 0.332579 0.332579
0.332579 0.332579 0.332579
0.509336 0.332579 0.332579
0.685833 0.332579 0.332579
0.856494 0.332579 0.332579
0.027534 0.509336 0.339739
0.161261 0.509336 0.337428
0.332579 0.509336 0.332579
0.541563 0.509711 0.214189
0.735164 0.509085 0.201991
0.892044 0.506730 0.271708
0.027534 0.685833 0.343179
0.161261 0.685833 0.339764
0.332579 0.685833 0.332579
0.536399 0.692232 0.188885
0.730091 0.690517 0.180263
0.918254 0.685610 0.173452
0.027534 0.856494 0.342894
0.161261 0.856494 0.339255
0.332579 0.856494 0.332579
0.519529 0.878085 0.258659
0.723818 0.896752 0.105655
0.915269 0.894560 0.097493
0.027534 0.027534 0.509336
0.170587 0.027534 0.509336
0.339739 0.027534 0.509336
0.509336 0.027534 0.509336
0.685833 0.027534 0.514468
0.856494 0.027534 0.514036
0.027534 0.170587 0.509336
0.161261 0.161261 0.509336
0.337428 0.161261 0.509336
0.509336 0.161261 0.509336
0.685833 0.161261 0.513284
0.856494 0.161261 0.512387
0.027534 0.339739 0.509336
0.161261 0.337428 0.509336
0.332579 0.332579 0.509336
0.509336 0.332579 0.509336
0.685833 0.332579 0.510835
0.856494 0.332579 0.509462
0.027534 0.509336 0.509336
0.161261 0.509336 0.509336
0.332579 0.509336 0.509336
0.509336 0.509336 0.509336
0.685833 0.509336 0.509336
0.856494 0.509336 0.509336
0.027534 0.685833 0.514468
0.161261 0.685833 0.513284
0.332579 0.685833 0.510835
0.509336 0.685833 0.509336
0.730068 0.690296 0.405615
0.919866 0.684468 0.395837
0.027534 0.856494 0.514036
0.161261 0.856494 0.512387
0.332579 0.856494 0.509462
0.509336 0.856494 0.509336
0.717795 0.896174 0.354229
0.917449 0.894853 0.331795
0.027534 0.027534 0.685833
0.172299 0.027534 0.685833
0.343179 0.027534 0.685833
0.514468 0.027534 0.685833
0.685833 0.027534 0.685833
0.856494 0.027534 0.685175
0.027534 0.172299 0.685833
0.161261 0.161261 0.685833
0.339764 0.161261 0.685833
0.513284 0.161261 0.685833
0.685833 0.161261 0.685833
0.856494 0.161261 0.684549
0.027534 0.343179 0.685833
0.161261 0.339764 0.685833
0.332579 0.332579 0.685833
0.510835 0.332579 0.685833
0.685833 0.332579 0.685833
0.856494 0.332579 0.683419
0.027534 0.514468 0.685833
0.161261 0.513284 0.685833
0.332579 0.510835 0.685833
0.509336 0.509336 0.685833
0.685833 0.509336 0.685833
0.856494 0.509336 0.683365
0.027534 0.685833 0.685833
0.161261 0.685833 0.685833
0.332579 0.685833 0.685833
0.509336 0.685833 0.685833
0.685833 0.685833 0.685833
0.856494 0.685833 0.685833
0.027534 0.856494 0.685175
0.161261 0.856494 0.684549
0.332579 0.856494 0.683419
0.509336 0.856494 0.683365
0.685833 0.856494 0.685833
0.913659 0.893763 0.592465
0.027534 0.027534 0.856494
0.172163 0.027534 0.856494
0.342894 0.027534 0.856494
0.514036 0.027534 0.856494
0.685175 0.027534 0.856494
0.856494 0.027534 0.856494
0.027534 0.172163 0.856494
0.161261 0.161261 0.856494
0.339255 0.161261 0.856494
0.512387 0.161261 0.856494
0.684549 0.161261 0.856494
0.856494 0.161261 0.856494
0.027534 0.342894 0.856494
0.161261 0.339255 0.856494
0.332579 0.332579 0.856494
0.509462 0.332579 0.856494
0.683419 0.332579 0.856494
0.856494 0.332579 0.856494
0.027534 0.514036 0.856494
0.161261 0.512387 0.856494
0.332579 0.509462 0.856494
0.509336 0.509336 0.856494
0.683365 0.509336 0.856494
0.856494 0.509336 0.856494
0.027534 0.685175 0.856494
0.161261 0.684549 0.856494
0.332579 0.683419 0.856494
0.509336 0.683365 0.856494
0.685833 0.685833 0.856494
0.856494 0.685833 0.856494
0.027534 0.856494 0.856494
0.161261 0.856494 0.856494
0.332579 0.856494 0.856494
0.509336 0.856494 0.856494
0.685833 0.856494 0.856494
0.856494 0.856494 0.856494
