Resources/Cookup/luts/PictureFX-LeicaM8-Camera-Standard-125.cube
#Generated with IWLTBAP LUT Generator
#Website: http://luts.iwltbap.com
TITLE "PictureFX-LeicaM8-125"
#LUT size
LUT_3D_SIZE 25
#LUT data points
0.000000 0.000000 0.000000
0.031373 0.000000 0.000000
0.070588 0.000000 0.000000
0.125490 0.000000 0.000000
0.184314 0.000000 0.000000
0.258824 0.000000 0.000000
0.341176 0.000000 0.000000
0.427451 0.000000 0.000000
0.509804 0.000000 0.000000
0.600000 0.000000 0.000000
0.686275 0.000000 0.000000
0.764706 0.000000 0.000000
0.831373 0.000000 0.000000
0.898039 0.000000 0.000000
0.960784 0.000000 0.000000
1.000000 0.000000 0.000000
1.000000 0.000000 0.000000
1.000000 0.000000 0.000000
1.000000 0.000000 0.000000
1.000000 0.113725 0.000000
1.000000 0.207843 0.000000
1.000000 0.274510 0.000000
1.000000 0.329412 0.000000
1.000000 0.380392 0.000000
1.000000 0.423529 0.000000
0.000000 0.031373 0.000000
0.031373 0.031373 0.000000
0.074510 0.031373 0.000000
0.129412 0.027451 0.000000
0.192157 0.019608 0.000000
0.266667 0.000000 0.000000
0.349020 0.000000 0.000000
0.431373 0.000000 0.000000
0.513725 0.000000 0.000000
0.603922 0.000000 0.000000
0.690196 0.000000 0.000000
0.764706 0.000000 0.000000
0.835294 0.000000 0.000000
0.898039 0.000000 0.000000
0.960784 0.000000 0.000000
1.000000 0.000000 0.000000
1.000000 0.000000 0.000000
1.000000 0.000000 0.000000
1.000000 0.058824 0.000000
1.000000 0.168627 0.000000
1.000000 0.243137 0.000000
1.000000 0.301961 0.000000
1.000000 0.352941 0.000000
1.000000 0.396078 0.000000
1.000000 0.435294 0.000000
0.000000 0.078431 0.000000
0.027451 0.078431 0.000000
0.078431 0.082353 0.000000
0.133333 0.082353 0.000000
0.200000 0.078431 0.000000
0.274510 0.066667 0.000000
0.352941 0.047059 0.000000
0.435294 0.015686 0.000000
0.521569 0.000000 0.000000
0.607843 0.000000 0.000000
0.694118 0.000000 0.000000
0.768627 0.000000 0.000000
0.835294 0.000000 0.000000
0.901961 0.000000 0.000000
0.960784 0.000000 0.000000
1.000000 0.000000 0.000000
1.000000 0.000000 0.000000
1.000000 0.062745 0.000000
1.000000 0.156863 0.000000
1.000000 0.223529 0.000000
1.000000 0.282353 0.000000
1.000000 0.333333 0.000000
1.000000 0.376471 0.000000
1.000000 0.419608 0.000000
1.000000 0.454902 0.000000
0.000000 0.141176 0.000000
0.003922 0.141176 0.000000
0.070588 0.141176 0.000000
0.137255 0.141176 0.000000
0.203922 0.141176 0.000000
0.282353 0.141176 0.000000
0.360784 0.133333 0.000000
0.443137 0.125490 0.000000
0.525490 0.113725 0.000000
0.611765 0.094118 0.000000
0.694118 0.066667 0.000000
0.768627 0.047059 0.000000
0.835294 0.043137 0.000000
0.901961 0.043137 0.000000
0.960784 0.058824 0.000000
1.000000 0.094118 0.000000
1.000000 0.141176 0.000000
1.000000 0.192157 0.000000
1.000000 0.239216 0.000000
1.000000 0.290196 0.000000
1.000000 0.333333 0.000000
1.000000 0.372549 0.000000
1.000000 0.411765 0.000000
1.000000 0.447059 0.000000
1.000000 0.478431 0.000000
0.000000 0.215686 0.000000
0.000000 0.215686 0.000000
0.035294 0.215686 0.000000
0.125490 0.219608 0.000000
0.207843 0.219608 0.000000
0.286275 0.219608 0.000000
0.368627 0.219608 0.000000
0.447059 0.215686 0.000000
0.533333 0.211765 0.000000
0.619608 0.203922 0.000000
0.698039 0.196078 0.000000
0.768627 0.192157 0.000000
0.835294 0.192157 0.000000
0.898039 0.200000 0.000000
0.960784 0.207843 0.000000
1.000000 0.227451 0.000000
1.000000 0.254902 0.000000
1.000000 0.286275 0.000000
1.000000 0.317647 0.000000
1.000000 0.352941 0.000000
1.000000 0.388235 0.000000
1.000000 0.423529 0.000000
1.000000 0.450980 0.000000
1.000000 0.482353 0.000000
1.000000 0.513725 0.000000
0.000000 0.298039 0.000000
0.000000 0.298039 0.000000
0.000000 0.298039 0.000000
0.105882 0.298039 0.000000
0.203922 0.301961 0.000000
0.290196 0.301961 0.000000
0.368627 0.301961 0.000000
0.450980 0.301961 0.000000
0.537255 0.298039 0.000000
0.623529 0.294118 0.000000
0.701961 0.294118 0.000000
0.768627 0.294118 0.000000
0.835294 0.298039 0.000000
0.898039 0.305882 0.000000
0.956863 0.313725 0.000000
1.000000 0.329412 0.000000
1.000000 0.345098 0.000000
1.000000 0.368627 0.000000
1.000000 0.392157 0.000000
1.000000 0.419608 0.000000
1.000000 0.447059 0.000000
1.000000 0.470588 0.000000
1.000000 0.498039 0.000000
1.000000 0.525490 0.000000
1.000000 0.552941 0.000000
0.000000 0.380392 0.000000
0.000000 0.380392 0.000000
0.000000 0.380392 0.000000
0.070588 0.380392 0.000000
0.196078 0.384314 0.000000
0.286275 0.384314 0.000000
0.368627 0.384314 0.000000
0.458824 0.384314 0.000000
0.545098 0.384314 0.000000
0.627451 0.384314 0.000000
0.701961 0.384314 0.000000
0.764706 0.388235 0.000000
0.831373 0.392157 0.000000
0.894118 0.400000 0.000000
0.952941 0.407843 0.000000
1.000000 0.415686 0.000000
1.000000 0.431373 0.000000
1.000000 0.447059 0.000000
1.000000 0.462745 0.000000
1.000000 0.482353 0.000000
1.000000 0.501961 0.000000
1.000000 0.525490 0.000000
1.000000 0.549020 0.000000
1.000000 0.572549 0.000000
1.000000 0.596078 0.000000
0.000000 0.466667 0.000000
0.000000 0.466667 0.000000
0.000000 0.470588 0.000000
0.000000 0.470588 0.000000
0.172549 0.470588 0.000000
0.274510 0.470588 0.000000
0.368627 0.474510 0.000000
0.458824 0.474510 0.000000
0.545098 0.474510 0.000000
0.623529 0.474510 0.000000
0.698039 0.474510 0.000000
0.760784 0.478431 0.000000
0.827451 0.478431 0.000000
0.890196 0.482353 0.000000
0.945098 0.490196 0.000000
0.996078 0.494118 0.000000
1.000000 0.501961 0.000000
1.000000 0.513725 0.000000
1.000000 0.529412 0.000000
1.000000 0.545098 0.000000
1.000000 0.560784 0.000000
1.000000 0.580392 0.000000
1.000000 0.600000 0.000000
1.000000 0.619608 0.000000
1.000000 0.639216 0.000000
0.000000 0.552941 0.000000
0.000000 0.552941 0.000000
0.000000 0.552941 0.000000
0.000000 0.552941 0.000000
0.141176 0.552941 0.000000
0.266667 0.556863 0.000000
0.368627 0.552941 0.000000
0.462745 0.552941 0.000000
0.549020 0.552941 0.000000
0.623529 0.552941 0.000000
0.694118 0.552941 0.000000
0.760784 0.552941 0.000000
0.823529 0.556863 0.000000
0.886275 0.556863 0.000000
0.941176 0.560784 0.000000
0.988235 0.564706 0.000000
1.000000 0.572549 0.000000
1.000000 0.580392 0.000000
1.000000 0.592157 0.000000
1.000000 0.607843 0.000000
1.000000 0.619608 0.000000
1.000000 0.635294 0.000000
1.000000 0.650980 0.000000
1.000000 0.670588 0.000000
1.000000 0.686275 0.000000
0.000000 0.627451 0.000000
0.000000 0.627451 0.000000
0.000000 0.627451 0.000000
0.000000 0.627451 0.000000
0.156863 0.627451 0.000000
0.282353 0.627451 0.000000
0.384314 0.623529 0.000000
0.474510 0.623529 0.000000
0.552941 0.623529 0.000000
0.627451 0.623529 0.000000
0.694118 0.623529 0.000000
0.760784 0.623529 0.000000
0.823529 0.623529 0.000000
0.882353 0.623529 0.000000
0.937255 0.627451 0.000000
0.984314 0.631373 0.000000
1.000000 0.635294 0.000000
1.000000 0.647059 0.000000
1.000000 0.654902 0.000000
1.000000 0.666667 0.000000
1.000000 0.678431 0.000000
1.000000 0.690196 0.000000
1.000000 0.701961 0.000000
1.000000 0.717647 0.000000
1.000000 0.729412 0.000000
0.000000 0.694118 0.000000
0.000000 0.694118 0.000000
0.000000 0.694118 0.000000
0.000000 0.694118 0.000000
0.200000 0.694118 0.000000
0.309804 0.690196 0.000000
0.403922 0.690196 0.000000
0.486275 0.690196 0.000000
0.560784 0.690196 0.000000
0.627451 0.690196 0.000000
0.694118 0.690196 0.000000
0.760784 0.690196 0.000000
0.823529 0.690196 0.000000
0.878431 0.690196 0.000000
0.929412 0.690196 0.000000
0.972549 0.694118 0.000000
1.000000 0.698039 0.000000
1.000000 0.705882 0.000000
1.000000 0.713725 0.000000
1.000000 0.721569 0.000000
1.000000 0.729412 0.000000
1.000000 0.741176 0.000000
1.000000 0.749020 0.000000
1.000000 0.760784 0.000000
1.000000 0.768627 0.000000
0.000000 0.756863 0.000000
0.000000 0.756863 0.000000
0.000000 0.756863 0.000000
0.137255 0.756863 0.000000
0.250980 0.752941 0.000000
0.345098 0.752941 0.000000
0.423529 0.752941 0.000000
0.498039 0.752941 0.000000
0.564706 0.752941 0.000000
0.631373 0.749020 0.000000
0.698039 0.749020 0.000000
0.760784 0.749020 0.000000
0.819608 0.749020 0.000000
0.874510 0.749020 0.000000
0.925490 0.749020 0.000000
0.964706 0.752941 0.000000
1.000000 0.756863 0.000000
1.000000 0.760784 0.000000
1.000000 0.764706 0.000000
1.000000 0.772549 0.000000
1.000000 0.776471 0.000000
1.000000 0.784314 0.000000
1.000000 0.792157 0.000000
1.000000 0.800000 0.000000
1.000000 0.807843 0.000000
0.000000 0.811765 0.000000
0.031373 0.811765 0.000000
0.145098 0.811765 0.000000
0.231373 0.811765 0.000000
0.305882 0.811765 0.000000
0.380392 0.807843 0.000000
0.450980 0.807843 0.000000
0.513725 0.807843 0.000000
0.580392 0.807843 0.000000
0.643137 0.803922 0.000000
0.705882 0.803922 0.000000
0.768627 0.800000 0.000000
0.823529 0.800000 0.000000
0.874510 0.800000 0.000000
0.921569 0.800000 0.000000
0.960784 0.800000 0.000000
0.992157 0.803922 0.000000
1.000000 0.807843 0.000000
1.000000 0.807843 0.000000
1.000000 0.811765 0.000000
1.000000 0.815686 0.000000
1.000000 0.823529 0.000000
1.000000 0.827451 0.000000
1.000000 0.831373 0.000000
1.000000 0.835294 0.000000
0.184314 0.858824 0.000000
0.219608 0.858824 0.000000
0.258824 0.858824 0.000000
0.309804 0.858824 0.000000
0.364706 0.854902 0.000000
0.419608 0.854902 0.000000
0.478431 0.854902 0.000000
0.541176 0.854902 0.000000
0.600000 0.850980 0.000000
0.662745 0.850980 0.000000
0.721569 0.847059 0.000000
0.776471 0.847059 0.000000
0.831373 0.843137 0.000000
0.878431 0.843137 0.000000
0.917647 0.843137 0.000000
0.956863 0.843137 0.000000
0.988235 0.843137 0.000000
1.000000 0.843137 0.000000
1.000000 0.847059 0.000000
1.000000 0.847059 0.000000
1.000000 0.850980 0.000000
1.000000 0.854902 0.000000
1.000000 0.854902 0.000000
1.000000 0.858824 0.000000
1.000000 0.862745 0.035294
0.301961 0.894118 0.000000
0.321569 0.894118 0.000000
0.349020 0.894118 0.000000
0.380392 0.894118 0.000000
0.423529 0.894118 0.000000
0.470588 0.894118 0.000000
0.521569 0.890196 0.000000
0.576471 0.890196 0.000000
0.631373 0.886275 0.000000
0.686275 0.886275 0.000000
0.741176 0.882353 0.000000
0.792157 0.878431 0.000000
0.839216 0.878431 0.000000
0.882353 0.874510 0.000000
0.921569 0.874510 0.000000
0.952941 0.874510 0.000000
0.984314 0.874510 0.000000
1.000000 0.874510 0.000000
1.000000 0.874510 0.000000
1.000000 0.878431 0.000000
1.000000 0.878431 0.007843
1.000000 0.882353 0.054902
1.000000 0.882353 0.090196
1.000000 0.886275 0.117647
1.000000 0.886275 0.141176
0.396078 0.925490 0.000000
0.407843 0.925490 0.000000
0.427451 0.921569 0.000000
0.454902 0.921569 0.000000
0.490196 0.921569 0.000000
0.529412 0.921569 0.000000
0.572549 0.917647 0.000000
0.619608 0.917647 0.000000
0.670588 0.913725 0.000000
0.717647 0.913725 0.000000
0.764706 0.909804 0.000000
0.811765 0.905882 0.000000
0.850980 0.905882 0.000000
0.890196 0.901961 0.000000
0.925490 0.901961 0.000000
0.952941 0.901961 0.023529
0.980392 0.901961 0.054902
1.000000 0.901961 0.078431
1.000000 0.901961 0.101961
1.000000 0.901961 0.121569
1.000000 0.901961 0.141176
1.000000 0.905882 0.156863
1.000000 0.905882 0.176471
1.000000 0.905882 0.192157
1.000000 0.909804 0.211765
0.478431 0.945098 0.054902
0.490196 0.945098 0.058824
0.505882 0.945098 0.058824
0.529412 0.945098 0.062745
0.556863 0.945098 0.066667
0.588235 0.941176 0.070588
0.623529 0.941176 0.074510
0.666667 0.941176 0.082353
0.705882 0.937255 0.086275
0.749020 0.933333 0.094118
0.788235 0.933333 0.101961
0.827451 0.929412 0.113725
0.866667 0.929412 0.121569
0.898039 0.925490 0.133333
0.929412 0.925490 0.145098
0.956863 0.925490 0.152941
0.980392 0.925490 0.164706
1.000000 0.925490 0.176471
1.000000 0.925490 0.188235
1.000000 0.925490 0.203922
1.000000 0.925490 0.215686
1.000000 0.925490 0.227451
1.000000 0.925490 0.239216
1.000000 0.929412 0.254902
1.000000 0.929412 0.266667
0.556863 0.964706 0.172549
0.564706 0.964706 0.172549
0.576471 0.964706 0.172549
0.596078 0.964706 0.176471
0.615686 0.964706 0.176471
0.643137 0.960784 0.176471
0.674510 0.960784 0.180392
0.709804 0.960784 0.184314
0.741176 0.956863 0.188235
0.776471 0.956863 0.192157
0.811765 0.952941 0.196078
0.847059 0.952941 0.203922
0.878431 0.949020 0.207843
0.905882 0.949020 0.215686
0.933333 0.945098 0.223529
0.956863 0.945098 0.231373
0.980392 0.945098 0.239216
1.000000 0.945098 0.247059
1.000000 0.945098 0.254902
1.000000 0.945098 0.266667
1.000000 0.945098 0.274510
1.000000 0.945098 0.286275
1.000000 0.945098 0.298039
1.000000 0.945098 0.305882
1.000000 0.949020 0.317647
0.623529 0.980392 0.247059
0.631373 0.980392 0.247059
0.639216 0.980392 0.247059
0.654902 0.980392 0.250980
0.670588 0.980392 0.250980
0.694118 0.980392 0.250980
0.717647 0.976471 0.254902
0.745098 0.976471 0.254902
0.776471 0.972549 0.258824
0.803922 0.972549 0.262745
0.835294 0.972549 0.266667
0.862745 0.968627 0.270588
0.890196 0.968627 0.274510
0.913725 0.964706 0.278431
0.937255 0.964706 0.286275
0.960784 0.964706 0.290196
0.980392 0.964706 0.298039
1.000000 0.960784 0.305882
1.000000 0.960784 0.313725
1.000000 0.960784 0.321569
1.000000 0.960784 0.329412
1.000000 0.960784 0.337255
1.000000 0.960784 0.345098
1.000000 0.964706 0.352941
1.000000 0.964706 0.364706
0.682353 0.996078 0.309804
0.686275 0.996078 0.309804
0.694118 0.996078 0.309804
0.705882 0.996078 0.309804
0.721569 0.996078 0.309804
0.737255 0.992157 0.313725
0.756863 0.992157 0.313725
0.780392 0.992157 0.317647
0.803922 0.988235 0.317647
0.827451 0.988235 0.321569
0.850980 0.988235 0.325490
0.878431 0.984314 0.329412
0.898039 0.984314 0.333333
0.921569 0.980392 0.337255
0.945098 0.980392 0.341176
0.964706 0.980392 0.345098
0.984314 0.980392 0.352941
1.000000 0.980392 0.356863
1.000000 0.976471 0.364706
1.000000 0.976471 0.368627
1.000000 0.976471 0.376471
1.000000 0.976471 0.384314
1.000000 0.976471 0.392157
1.000000 0.976471 0.400000
1.000000 0.980392 0.407843
0.729412 1.000000 0.364706
0.737255 1.000000 0.364706
0.741176 1.000000 0.364706
0.749020 1.000000 0.364706
0.760784 1.000000 0.364706
0.776471 1.000000 0.364706
0.792157 1.000000 0.368627
0.811765 1.000000 0.368627
0.827451 1.000000 0.372549
0.850980 1.000000 0.372549
0.870588 1.000000 0.376471
0.890196 1.000000 0.380392
0.909804 0.996078 0.380392
0.929412 0.996078 0.384314
0.949020 0.996078 0.388235
0.968627 0.996078 0.392157
0.988235 0.992157 0.400000
1.000000 0.992157 0.403922
1.000000 0.992157 0.407843
1.000000 0.992157 0.411765
1.000000 0.992157 0.419608
1.000000 0.988235 0.423529
1.000000 0.988235 0.431373
1.000000 0.988235 0.439216
1.000000 0.988235 0.447059
0.772549 1.000000 0.411765
0.776471 1.000000 0.411765
0.780392 1.000000 0.411765
0.788235 1.000000 0.411765
0.796078 1.000000 0.411765
0.807843 1.000000 0.415686
0.819608 1.000000 0.415686
0.835294 1.000000 0.415686
0.850980 1.000000 0.419608
0.866667 1.000000 0.419608
0.886275 1.000000 0.423529
0.901961 1.000000 0.423529
0.921569 1.000000 0.427451
0.937255 1.000000 0.431373
0.956863 1.000000 0.435294
0.972549 1.000000 0.439216
0.992157 1.000000 0.443137
1.000000 1.000000 0.447059
1.000000 1.000000 0.450980
1.000000 1.000000 0.454902
1.000000 1.000000 0.458824
1.000000 0.996078 0.466667
1.000000 0.996078 0.470588
1.000000 0.996078 0.474510
1.000000 0.996078 0.482353
0.807843 1.000000 0.454902
0.811765 1.000000 0.454902
0.815686 1.000000 0.454902
0.819608 1.000000 0.454902
0.827451 1.000000 0.454902
0.835294 1.000000 0.458824
0.847059 1.000000 0.458824
0.858824 1.000000 0.458824
0.874510 1.000000 0.462745
0.886275 1.000000 0.462745
0.901961 1.000000 0.462745
0.917647 1.000000 0.466667
0.933333 1.000000 0.470588
0.949020 1.000000 0.470588
0.968627 1.000000 0.474510
0.984314 1.000000 0.478431
1.000000 1.000000 0.482353
1.000000 1.000000 0.486275
1.000000 1.000000 0.490196
1.000000 1.000000 0.494118
1.000000 1.000000 0.498039
1.000000 1.000000 0.501961
1.000000 1.000000 0.505882
1.000000 1.000000 0.513725
1.000000 1.000000 0.517647
0.843137 1.000000 0.494118
0.843137 1.000000 0.494118
0.847059 1.000000 0.494118
0.850980 1.000000 0.494118
0.858824 1.000000 0.498039
0.862745 1.000000 0.498039
0.874510 1.000000 0.498039
0.882353 1.000000 0.498039
0.894118 1.000000 0.501961
0.905882 1.000000 0.501961
0.921569 1.000000 0.501961
0.933333 1.000000 0.505882
0.949020 1.000000 0.505882
0.964706 1.000000 0.509804
0.976471 1.000000 0.513725
0.992157 1.000000 0.513725
1.000000 1.000000 0.517647
1.000000 1.000000 0.521569
1.000000 1.000000 0.525490
1.000000 1.000000 0.529412
1.000000 1.000000 0.533333
1.000000 1.000000 0.537255
1.000000 1.000000 0.541176
1.000000 1.000000 0.549020
1.000000 1.000000 0.552941
0.870588 1.000000 0.533333
0.874510 1.000000 0.533333
0.874510 1.000000 0.533333
0.878431 1.000000 0.533333
0.882353 1.000000 0.537255
0.890196 1.000000 0.537255
0.898039 1.000000 0.537255
0.905882 1.000000 0.537255
0.917647 1.000000 0.537255
0.925490 1.000000 0.541176
0.937255 1.000000 0.541176
0.952941 1.000000 0.545098
0.964706 1.000000 0.545098
0.976471 1.000000 0.549020
0.988235 1.000000 0.549020
1.000000 1.000000 0.552941
1.000000 1.000000 0.556863
1.000000 1.000000 0.560784
1.000000 1.000000 0.560784
1.000000 1.000000 0.564706
1.000000 1.000000 0.568627
1.000000 1.000000 0.572549
1.000000 1.000000 0.576471
1.000000 1.000000 0.584314
1.000000 1.000000 0.588235
0.000000 0.000000 0.031373
0.031373 0.000000 0.031373
0.074510 0.000000 0.031373
0.125490 0.000000 0.031373
0.188235 0.000000 0.031373
0.262745 0.000000 0.031373
0.345098 0.000000 0.027451
0.427451 0.000000 0.027451
0.513725 0.000000 0.019608
0.603922 0.000000 0.015686
0.690196 0.000000 0.007843
0.764706 0.000000 0.000000
0.835294 0.000000 0.000000
0.901961 0.000000 0.000000
0.960784 0.000000 0.000000
1.000000 0.000000 0.000000
1.000000 0.000000 0.000000
1.000000 0.000000 0.000000
1.000000 0.000000 0.000000
1.000000 0.113725 0.000000
1.000000 0.207843 0.000000
1.000000 0.274510 0.000000
1.000000 0.333333 0.000000
1.000000 0.380392 0.000000
1.000000 0.423529 0.000000
0.000000 0.031373 0.031373
0.031373 0.031373 0.031373
0.078431 0.031373 0.031373
0.133333 0.027451 0.031373
0.196078 0.019608 0.031373
0.270588 0.000000 0.031373
0.349020 0.000000 0.027451
0.431373 0.000000 0.023529
0.517647 0.000000 0.019608
0.607843 0.000000 0.011765
0.690196 0.000000 0.000000
0.768627 0.000000 0.000000
0.835294 0.000000 0.000000
0.901961 0.000000 0.000000
0.960784 0.000000 0.000000
1.000000 0.000000 0.000000
1.000000 0.000000 0.000000
1.000000 0.000000 0.000000
1.000000 0.058824 0.000000
1.000000 0.172549 0.000000
1.000000 0.243137 0.000000
1.000000 0.301961 0.000000
1.000000 0.352941 0.000000
1.000000 0.396078 0.000000
1.000000 0.435294 0.000000
0.000000 0.078431 0.031373
0.027451 0.078431 0.031373
0.078431 0.082353 0.031373
0.137255 0.078431 0.031373
0.200000 0.078431 0.027451
0.278431 0.066667 0.027451
0.356863 0.047059 0.023529
0.439216 0.011765 0.019608
0.521569 0.000000 0.011765
0.611765 0.000000 0.003922
0.694118 0.000000 0.000000
0.768627 0.000000 0.000000
0.835294 0.000000 0.000000
0.901961 0.000000 0.000000
0.960784 0.000000 0.000000
1.000000 0.000000 0.000000
1.000000 0.000000 0.000000
1.000000 0.062745 0.000000
1.000000 0.156863 0.000000
1.000000 0.227451 0.000000
1.000000 0.282353 0.000000
1.000000 0.333333 0.000000
1.000000 0.376471 0.000000
1.000000 0.419608 0.000000
1.000000 0.454902 0.000000
0.000000 0.141176 0.023529
0.007843 0.141176 0.023529
0.074510 0.141176 0.023529
0.137255 0.145098 0.023529
0.207843 0.141176 0.019608
0.286275 0.141176 0.015686
0.364706 0.133333 0.011765
0.443137 0.125490 0.007843
0.529412 0.113725 0.000000
0.615686 0.090196 0.000000
0.698039 0.066667 0.000000
0.768627 0.047059 0.000000
0.835294 0.043137 0.000000
0.901961 0.043137 0.000000
0.960784 0.058824 0.000000
1.000000 0.094118 0.000000
1.000000 0.141176 0.000000
1.000000 0.192157 0.000000
1.000000 0.243137 0.000000
1.000000 0.290196 0.000000
1.000000 0.333333 0.000000
1.000000 0.376471 0.000000
1.000000 0.411765 0.000000
1.000000 0.447059 0.000000
1.000000 0.478431 0.000000
0.000000 0.215686 0.007843
0.000000 0.215686 0.007843
0.039216 0.215686 0.003922
0.129412 0.219608 0.003922
0.211765 0.219608 0.000000
0.290196 0.219608 0.000000
0.368627 0.219608 0.000000
0.450980 0.215686 0.000000
0.533333 0.211765 0.000000
0.619608 0.203922 0.000000
0.701961 0.196078 0.000000
0.772549 0.192157 0.000000
0.835294 0.192157 0.000000
0.901961 0.200000 0.000000
0.960784 0.207843 0.000000
1.000000 0.227451 0.000000
1.000000 0.254902 0.000000
1.000000 0.286275 0.000000
1.000000 0.321569 0.000000
1.000000 0.356863 0.000000
1.000000 0.388235 0.000000
1.000000 0.423529 0.000000
1.000000 0.454902 0.000000
1.000000 0.482353 0.000000
1.000000 0.513725 0.000000
0.000000 0.298039 0.000000
0.000000 0.298039 0.000000
0.000000 0.298039 0.000000
0.109804 0.301961 0.000000
0.207843 0.301961 0.000000
0.290196 0.301961 0.000000
0.372549 0.301961 0.000000
0.454902 0.301961 0.000000
0.541176 0.298039 0.000000
0.623529 0.294118 0.000000
0.701961 0.294118 0.000000
0.768627 0.294118 0.000000
0.835294 0.298039 0.000000
0.898039 0.305882 0.000000
0.956863 0.313725 0.000000
1.000000 0.329412 0.000000
1.000000 0.349020 0.000000
1.000000 0.368627 0.000000
1.000000 0.396078 0.000000
1.000000 0.419608 0.000000
1.000000 0.447059 0.000000
1.000000 0.470588 0.000000
1.000000 0.498039 0.000000
1.000000 0.525490 0.000000
1.000000 0.552941 0.000000
0.000000 0.380392 0.000000
0.000000 0.380392 0.000000
0.000000 0.380392 0.000000
0.078431 0.380392 0.000000
0.200000 0.384314 0.000000
0.290196 0.384314 0.000000
0.372549 0.384314 0.000000
0.458824 0.384314 0.000000
0.545098 0.384314 0.000000
0.627451 0.384314 0.000000
0.701961 0.384314 0.000000
0.768627 0.388235 0.000000
0.831373 0.392157 0.000000
0.894118 0.400000 0.000000
0.952941 0.407843 0.000000
1.000000 0.415686 0.000000
1.000000 0.431373 0.000000
1.000000 0.447059 0.000000
1.000000 0.462745 0.000000
1.000000 0.482353 0.000000
1.000000 0.501961 0.000000
1.000000 0.525490 0.000000
1.000000 0.549020 0.000000
1.000000 0.572549 0.000000
1.000000 0.596078 0.000000
0.000000 0.466667 0.000000
0.000000 0.470588 0.000000
0.000000 0.470588 0.000000
0.000000 0.470588 0.000000
0.176471 0.470588 0.000000
0.278431 0.470588 0.000000
0.368627 0.474510 0.000000
0.458824 0.474510 0.000000
0.545098 0.474510 0.000000
0.627451 0.474510 0.000000
0.698039 0.474510 0.000000
0.764706 0.478431 0.000000
0.827451 0.478431 0.000000
0.890196 0.482353 0.000000
0.945098 0.490196 0.000000
0.996078 0.494118 0.000000
1.000000 0.505882 0.000000
1.000000 0.513725 0.000000
1.000000 0.529412 0.000000
1.000000 0.545098 0.000000
1.000000 0.560784 0.000000
1.000000 0.580392 0.000000
1.000000 0.600000 0.000000
1.000000 0.619608 0.000000
1.000000 0.639216 0.000000
0.000000 0.552941 0.000000
0.000000 0.552941 0.000000
0.000000 0.552941 0.000000
0.000000 0.552941 0.000000
0.149020 0.552941 0.000000
0.270588 0.556863 0.000000
0.372549 0.552941 0.000000
0.462745 0.552941 0.000000
0.549020 0.552941 0.000000
0.627451 0.552941 0.000000
0.694118 0.552941 0.000000
0.760784 0.552941 0.000000
0.823529 0.556863 0.000000
0.886275 0.556863 0.000000
0.941176 0.560784 0.000000
0.988235 0.564706 0.000000
1.000000 0.572549 0.000000
1.000000 0.580392 0.000000
1.000000 0.592157 0.000000
1.000000 0.607843 0.000000
1.000000 0.619608 0.000000
1.000000 0.635294 0.000000
1.000000 0.650980 0.000000
1.000000 0.670588 0.000000
1.000000 0.686275 0.000000
0.000000 0.627451 0.000000
0.000000 0.627451 0.000000
0.000000 0.627451 0.000000
0.000000 0.627451 0.000000
0.160784 0.627451 0.000000
0.286275 0.627451 0.000000
0.384314 0.623529 0.000000
0.474510 0.623529 0.000000
0.556863 0.623529 0.000000
0.627451 0.623529 0.000000
0.694118 0.623529 0.000000
0.760784 0.623529 0.000000
0.823529 0.623529 0.000000
0.882353 0.623529 0.000000
0.937255 0.627451 0.000000
0.980392 0.631373 0.000000
1.000000 0.639216 0.000000
1.000000 0.647059 0.000000
1.000000 0.654902 0.000000
1.000000 0.666667 0.000000
1.000000 0.678431 0.000000
1.000000 0.690196 0.000000
1.000000 0.701961 0.000000
1.000000 0.717647 0.000000
1.000000 0.729412 0.000000
0.000000 0.694118 0.000000
0.000000 0.694118 0.000000
0.000000 0.694118 0.000000
0.003922 0.694118 0.000000
0.203922 0.694118 0.000000
0.313725 0.690196 0.000000
0.403922 0.690196 0.000000
0.486275 0.690196 0.000000
