Resources/Cookup/luts/PictureFX-LeicaM8-Camera-Standard-125.cube
#Generated with IWLTBAP LUT Generator
#Website: http://luts.iwltbap.com
TITLE "PictureFX-LeicaM8-125"
#LUT size
LUT_3D_SIZE 5
#LUT data points
0.000000 0.000000 0.000000
0.341176 0.000000 0.000000
0.831373 0.000000 0.000000
1.000000 0.000000 0.000000
1.000000 0.423529 0.000000
0.000000 0.380392 0.000000
0.368627 0.384314 0.000000
0.831373 0.392157 0.000000
1.000000 0.462745 0.000000
1.000000 0.596078 0.000000
0.000000 0.811765 0.000000
0.450980 0.807843 0.000000
0.823529 0.800000 0.000000
1.000000 0.807843 0.000000
1.000000 0.835294 0.000000
0.623529 0.980392 0.247059
0.717647 0.976471 0.254902
0.890196 0.968627 0.274510
1.000000 0.960784 0.313725
1.000000 0.964706 0.364706
0.870588 1.000000 0.533333
0.898039 1.000000 0.537255
0.964706 1.000000 0.545098
1.000000 1.000000 0.560784
1.000000 1.000000 0.588235
0.000000 0.000000 0.372549
0.356863 0.000000 0.376471
0.839216 0.000000 0.384314
1.000000 0.000000 0.388235
1.000000 0.427451 0.400000
0.000000 0.380392 0.384314
0.384314 0.384314 0.384314
0.831373 0.396078 0.384314
1.000000 0.466667 0.388235
1.000000 0.596078 0.407843
0.000000 0.811765 0.403922
0.447059 0.807843 0.403922
0.815686 0.800000 0.411765
1.000000 0.811765 0.427451
1.000000 0.839216 0.450980
0.615686 0.980392 0.513725
0.709804 0.976471 0.513725
0.874510 0.968627 0.521569
1.000000 0.960784 0.537255
1.000000 0.964706 0.560784
0.858824 1.000000 0.662745
0.886275 1.000000 0.662745
0.949020 1.000000 0.670588
1.000000 1.000000 0.682353
1.000000 1.000000 0.698039
0.000000 0.000000 0.811765
0.380392 0.000000 0.811765
0.835294 0.000000 0.811765
1.000000 0.094118 0.811765
1.000000 0.447059 0.807843
0.000000 0.384314 0.811765
0.423529 0.384314 0.811765
0.827451 0.403922 0.807843
1.000000 0.478431 0.807843
1.000000 0.607843 0.803922
0.152941 0.807843 0.800000
0.458824 0.803922 0.800000
0.800000 0.800000 0.800000
0.996078 0.811765 0.800000
1.000000 0.839216 0.803922
0.615686 0.976471 0.815686
0.698039 0.972549 0.815686
0.847059 0.964706 0.819608
0.972549 0.960784 0.819608
1.000000 0.964706 0.827451
0.839216 1.000000 0.854902
0.862745 1.000000 0.854902
0.925490 1.000000 0.854902
1.000000 1.000000 0.858824
1.000000 1.000000 0.866667
0.407843 0.000000 1.000000
0.600000 0.000000 1.000000
0.898039 0.000000 1.000000
1.000000 0.211765 0.992157
1.000000 0.478431 0.984314
0.435294 0.388235 0.996078
0.600000 0.396078 0.996078
0.878431 0.419608 0.992157
1.000000 0.505882 0.984314
1.000000 0.627451 0.976471
0.462745 0.803922 0.972549
0.603922 0.800000 0.972549
0.831373 0.800000 0.968627
0.984314 0.815686 0.968627
1.000000 0.843137 0.964706
0.686275 0.968627 0.960784
0.741176 0.968627 0.960784
0.850980 0.964706 0.960784
0.960784 0.960784 0.960784
1.000000 0.964706 0.960784
0.847059 1.000000 0.968627
0.866667 1.000000 0.968627
0.921569 1.000000 0.968627
0.988235 1.000000 0.968627
1.000000 1.000000 0.972549
0.741176 0.000000 1.000000
0.827451 0.000000 1.000000
0.992157 0.000000 1.000000
1.000000 0.321569 1.000000
1.000000 0.525490 1.000000
0.733333 0.411765 1.000000
0.811765 0.419608 1.000000
0.960784 0.458824 1.000000
1.000000 0.541176 1.000000
1.000000 0.658824 1.000000
0.713725 0.800000 1.000000
0.776471 0.800000 1.000000
0.894118 0.807843 1.000000
1.000000 0.823529 1.000000
1.000000 0.854902 1.000000
0.780392 0.964706 1.000000
0.815686 0.964706 1.000000
0.890196 0.960784 1.000000
0.976471 0.960784 1.000000
1.000000 0.968627 1.000000
0.886275 1.000000 1.000000
0.901961 1.000000 1.000000
0.945098 1.000000 1.000000
0.992157 1.000000 1.000000
1.000000 1.000000 1.000000
