Resources/Cookup/luts/PictureFX-LeicaM8-Camera-Standard-125.cube
#Generated with IWLTBAP LUT Generator
#Website: http://luts.iwltbap.com
TITLE "PictureFX-LeicaM8-125"
#LUT size
LUT_3D_SIZE 9
#LUT data points
0.000000 0.000000 0.000000
0.125490 0.000000 0.000000
0.341176 0.000000 0.000000
0.600000 0.000000 0.000000
0.831373 0.000000 0.000000
1.000000 0.000000 0.000000
1.000000 0.000000 0.000000
1.000000 0.274510 0.000000
1.000000 0.423529 0.000000
0.000000 0.141176 0.000000
0.137255 0.141176 0.000000
0.360784 0.133333 0.000000
0.611765 0.094118 0.000000
0.835294 0.043137 0.000000
1.000000 0.094118 0.000000
1.000000 0.239216 0.000000
1.000000 0.372549 0.000000
1.000000 0.478431 0.000000
0.000000 0.380392 0.000000
0.070588 0.380392 0.000000
0.368627 0.384314 0.000000
0.627451 0.384314 0.000000
0.831373 0.392157 0.000000
1.000000 0.415686 0.000000
1.000000 0.462745 0.000000
1.000000 0.525490 0.000000
1.000000 0.596078 0.000000
0.000000 0.627451 0.000000
0.000000 0.627451 0.000000
0.384314 0.623529 0.000000
0.627451 0.623529 0.000000
0.823529 0.623529 0.000000
0.984314 0.631373 0.000000
1.000000 0.654902 0.000000
1.000000 0.690196 0.000000
1.000000 0.729412 0.000000
0.000000 0.811765 0.000000
0.231373 0.811765 0.000000
0.450980 0.807843 0.000000
0.643137 0.803922 0.000000
0.823529 0.800000 0.000000
0.960784 0.800000 0.000000
1.000000 0.807843 0.000000
1.000000 0.823529 0.000000
1.000000 0.835294 0.000000
0.396078 0.925490 0.000000
0.454902 0.921569 0.000000
0.572549 0.917647 0.000000
0.717647 0.913725 0.000000
0.850980 0.905882 0.000000
0.952941 0.901961 0.023529
1.000000 0.901961 0.101961
1.000000 0.905882 0.156863
1.000000 0.909804 0.211765
0.623529 0.980392 0.247059
0.654902 0.980392 0.250980
0.717647 0.976471 0.254902
0.803922 0.972549 0.262745
0.890196 0.968627 0.274510
0.960784 0.964706 0.290196
1.000000 0.960784 0.313725
1.000000 0.960784 0.337255
1.000000 0.964706 0.364706
0.772549 1.000000 0.411765
0.788235 1.000000 0.411765
0.819608 1.000000 0.415686
0.866667 1.000000 0.419608
0.921569 1.000000 0.427451
0.972549 1.000000 0.439216
1.000000 1.000000 0.450980
1.000000 0.996078 0.466667
1.000000 0.996078 0.482353
0.870588 1.000000 0.533333
0.878431 1.000000 0.533333
0.898039 1.000000 0.537255
0.925490 1.000000 0.541176
0.964706 1.000000 0.545098
1.000000 1.000000 0.552941
1.000000 1.000000 0.560784
1.000000 1.000000 0.572549
1.000000 1.000000 0.588235
0.000000 0.000000 0.137255
0.129412 0.000000 0.137255
0.352941 0.000000 0.141176
0.607843 0.000000 0.141176
0.835294 0.000000 0.137255
1.000000 0.000000 0.129412
1.000000 0.000000 0.121569
1.000000 0.278431 0.109804
1.000000 0.423529 0.109804
0.000000 0.141176 0.145098
0.145098 0.145098 0.145098
0.372549 0.133333 0.141176
0.619608 0.090196 0.137255
0.839216 0.043137 0.133333
1.000000 0.098039 0.121569
1.000000 0.243137 0.109804
1.000000 0.376471 0.101961
1.000000 0.482353 0.109804
0.000000 0.380392 0.129412
0.098039 0.384314 0.129412
0.380392 0.384314 0.125490
0.631373 0.384314 0.113725
0.831373 0.396078 0.101961
1.000000 0.419608 0.090196
1.000000 0.466667 0.082353
1.000000 0.525490 0.090196
1.000000 0.596078 0.109804
0.000000 0.627451 0.078431
0.000000 0.627451 0.074510
0.392157 0.623529 0.074510
0.627451 0.623529 0.070588
0.823529 0.623529 0.066667
0.980392 0.631373 0.070588
1.000000 0.654902 0.078431
1.000000 0.690196 0.101961
1.000000 0.729412 0.133333
0.000000 0.811765 0.086275
0.239216 0.811765 0.086275
0.450980 0.807843 0.086275
0.643137 0.803922 0.094118
0.823529 0.800000 0.101961
0.956863 0.800000 0.121569
1.000000 0.807843 0.149020
1.000000 0.823529 0.180392
1.000000 0.835294 0.219608
0.392157 0.925490 0.211765
0.454902 0.921569 0.215686
0.572549 0.917647 0.219608
0.717647 0.913725 0.227451
0.850980 0.905882 0.239216
0.949020 0.901961 0.254902
1.000000 0.901961 0.278431
1.000000 0.905882 0.301961
1.000000 0.909804 0.329412
0.619608 0.980392 0.352941
0.650980 0.980392 0.356863
0.717647 0.976471 0.356863
0.800000 0.972549 0.364706
0.886275 0.968627 0.372549
0.956863 0.964706 0.384314
1.000000 0.960784 0.400000
1.000000 0.960784 0.415686
1.000000 0.964706 0.435294
0.768627 1.000000 0.470588
0.784314 1.000000 0.470588
0.815686 1.000000 0.474510
0.862745 1.000000 0.478431
0.917647 1.000000 0.482353
0.968627 1.000000 0.490196
1.000000 1.000000 0.501961
1.000000 0.996078 0.513725
1.000000 0.996078 0.529412
0.866667 1.000000 0.576471
0.874510 1.000000 0.576471
0.894118 1.000000 0.576471
0.921569 1.000000 0.580392
0.960784 1.000000 0.584314
1.000000 1.000000 0.592157
1.000000 1.000000 0.600000
1.000000 1.000000 0.611765
1.000000 1.000000 0.623529
0.000000 0.000000 0.372549
0.074510 0.000000 0.376471
0.356863 0.000000 0.376471
0.615686 0.000000 0.380392
0.839216 0.000000 0.384314
1.000000 0.000000 0.384314
1.000000 0.000000 0.388235
1.000000 0.286275 0.392157
1.000000 0.427451 0.400000
0.000000 0.141176 0.380392
0.113725 0.141176 0.380392
0.376471 0.129412 0.380392
0.627451 0.082353 0.384314
0.839216 0.043137 0.384314
1.000000 0.105882 0.388235
1.000000 0.250980 0.388235
1.000000 0.380392 0.392157
1.000000 0.486275 0.400000
0.000000 0.380392 0.384314
0.086275 0.384314 0.384314
0.384314 0.384314 0.384314
0.635294 0.384314 0.384314
0.831373 0.396078 0.384314
0.996078 0.419608 0.388235
1.000000 0.466667 0.388235
1.000000 0.529412 0.396078
1.000000 0.596078 0.407843
0.000000 0.627451 0.388235
0.000000 0.627451 0.388235
0.400000 0.623529 0.388235
0.627451 0.623529 0.388235
0.819608 0.623529 0.392157
0.972549 0.631373 0.392157
1.000000 0.658824 0.400000
1.000000 0.694118 0.407843
1.000000 0.733333 0.419608
0.000000 0.811765 0.403922
0.239216 0.807843 0.403922
0.447059 0.807843 0.403922
0.639216 0.803922 0.407843
0.815686 0.800000 0.411765
0.945098 0.800000 0.415686
1.000000 0.811765 0.427451
1.000000 0.823529 0.439216
1.000000 0.839216 0.450980
0.388235 0.921569 0.450980
0.447059 0.921569 0.450980
0.564706 0.917647 0.450980
0.709804 0.909804 0.454902
0.839216 0.905882 0.458824
0.937255 0.901961 0.466667
1.000000 0.901961 0.474510
1.000000 0.905882 0.486275
1.000000 0.909804 0.501961
0.615686 0.980392 0.513725
0.643137 0.980392 0.513725
0.709804 0.976471 0.513725
0.792157 0.972549 0.517647
0.874510 0.968627 0.521569
0.945098 0.964706 0.529412
1.000000 0.960784 0.537255
1.000000 0.960784 0.545098
1.000000 0.964706 0.560784
0.760784 1.000000 0.584314
0.776471 1.000000 0.584314
0.807843 1.000000 0.584314
0.854902 1.000000 0.588235
0.905882 1.000000 0.592157
0.960784 1.000000 0.600000
1.000000 1.000000 0.607843
1.000000 0.996078 0.615686
1.000000 0.996078 0.627451
0.858824 1.000000 0.662745
0.866667 1.000000 0.662745
0.886275 1.000000 0.662745
0.913725 1.000000 0.666667
0.949020 1.000000 0.670588
0.988235 1.000000 0.674510
1.000000 1.000000 0.682353
1.000000 1.000000 0.690196
1.000000 1.000000 0.698039
0.000000 0.000000 0.623529
0.000000 0.000000 0.623529
0.349020 0.000000 0.623529
0.619608 0.000000 0.623529
0.835294 0.000000 0.627451
1.000000 0.000000 0.627451
1.000000 0.015686 0.627451
1.000000 0.298039 0.627451
1.000000 0.435294 0.627451
0.000000 0.141176 0.623529
0.000000 0.137255 0.623529
0.368627 0.117647 0.627451
0.631373 0.066667 0.627451
0.835294 0.039216 0.627451
1.000000 0.121569 0.627451
1.000000 0.262745 0.623529
1.000000 0.388235 0.627451
1.000000 0.490196 0.627451
0.000000 0.384314 0.627451
0.000000 0.384314 0.627451
0.388235 0.384314 0.627451
0.631373 0.388235 0.623529
0.827451 0.400000 0.623529
0.984314 0.423529 0.623529
1.000000 0.474510 0.623529
1.000000 0.533333 0.627451
1.000000 0.603922 0.627451
0.000000 0.627451 0.623529
0.019608 0.627451 0.623529
0.403922 0.623529 0.623529
0.623529 0.623529 0.623529
0.815686 0.623529 0.623529
0.960784 0.635294 0.623529
1.000000 0.658824 0.623529
1.000000 0.694118 0.627451
1.000000 0.733333 0.631373
0.019608 0.807843 0.623529
0.247059 0.807843 0.623529
0.443137 0.807843 0.623529
0.635294 0.803922 0.627451
0.807843 0.800000 0.627451
0.933333 0.803922 0.631373
1.000000 0.811765 0.631373
1.000000 0.823529 0.639216
1.000000 0.839216 0.647059
0.388235 0.921569 0.643137
0.447059 0.917647 0.643137
0.564706 0.913725 0.643137
0.701961 0.909804 0.647059
0.827451 0.901961 0.647059
0.921569 0.901961 0.650980
0.996078 0.901961 0.658824
1.000000 0.905882 0.662745
1.000000 0.909804 0.670588
0.611765 0.980392 0.678431
0.639216 0.976471 0.678431
0.698039 0.972549 0.678431
0.780392 0.968627 0.682353
0.858824 0.964706 0.682353
0.929412 0.964706 0.686275
0.988235 0.960784 0.694118
1.000000 0.960784 0.698039
1.000000 0.964706 0.705882
0.749020 1.000000 0.721569
0.760784 1.000000 0.721569
0.792157 1.000000 0.721569
0.839216 1.000000 0.725490
0.890196 1.000000 0.725490
0.945098 1.000000 0.729412
0.992157 1.000000 0.733333
1.000000 0.996078 0.741176
1.000000 0.996078 0.745098
0.847059 1.000000 0.768627
0.854902 1.000000 0.768627
0.870588 1.000000 0.768627
0.901961 1.000000 0.768627
0.937255 1.000000 0.772549
0.976471 1.000000 0.776471
1.000000 1.000000 0.780392
1.000000 1.000000 0.784314
1.000000 1.000000 0.788235
0.000000 0.000000 0.811765
0.000000 0.000000 0.811765
0.380392 0.000000 0.811765
0.635294 0.000000 0.811765
0.835294 0.000000 0.811765
1.000000 0.000000 0.811765
1.000000 0.094118 0.811765
1.000000 0.317647 0.807843
1.000000 0.447059 0.807843
0.000000 0.129412 0.811765
0.050980 0.125490 0.811765
0.403922 0.098039 0.811765
0.643137 0.050980 0.811765
0.835294 0.047059 0.811765
0.992157 0.145098 0.811765
1.000000 0.282353 0.807843
1.000000 0.400000 0.807843
1.000000 0.498039 0.807843
0.000000 0.384314 0.811765
0.129412 0.384314 0.811765
0.423529 0.384314 0.811765
0.639216 0.388235 0.811765
0.827451 0.403922 0.807843
0.976471 0.431373 0.807843
1.000000 0.478431 0.807843
1.000000 0.541176 0.803922
1.000000 0.607843 0.803922
0.000000 0.623529 0.803922
0.180392 0.623529 0.803922
0.427451 0.623529 0.803922
0.627451 0.623529 0.803922
0.811765 0.623529 0.803922
0.949020 0.639216 0.803922
1.000000 0.662745 0.803922
1.000000 0.698039 0.800000
1.000000 0.737255 0.803922
0.152941 0.807843 0.800000
0.282353 0.807843 0.800000
0.458824 0.803922 0.800000
0.639216 0.800000 0.800000
0.800000 0.800000 0.800000
0.913725 0.803922 0.800000
0.996078 0.811765 0.800000
1.000000 0.823529 0.803922
1.000000 0.839216 0.803922
0.411765 0.917647 0.803922
0.466667 0.917647 0.803922
0.572549 0.913725 0.803922
0.701961 0.905882 0.803922
0.815686 0.901961 0.803922
0.905882 0.901961 0.807843
0.976471 0.901961 0.807843
1.000000 0.905882 0.811765
1.000000 0.909804 0.815686
0.615686 0.976471 0.815686
0.639216 0.976471 0.815686
0.698039 0.972549 0.815686
0.772549 0.968627 0.815686
0.847059 0.964706 0.819608
0.913725 0.960784 0.819608
0.972549 0.960784 0.819608
1.000000 0.960784 0.823529
1.000000 0.964706 0.827451
0.741176 1.000000 0.831373
0.756863 1.000000 0.831373
0.784314 1.000000 0.831373
0.827451 1.000000 0.835294
0.878431 1.000000 0.835294
0.929412 1.000000 0.835294
0.980392 1.000000 0.839216
1.000000 0.996078 0.839216
1.000000 0.996078 0.843137
0.839216 1.000000 0.854902
0.847059 1.000000 0.854902
0.862745 1.000000 0.854902
0.890196 1.000000 0.854902
0.925490 1.000000 0.854902
0.964706 1.000000 0.858824
1.000000 1.000000 0.858824
1.000000 1.000000 0.862745
1.000000 1.000000 0.866667
0.047059 0.000000 0.933333
0.262745 0.000000 0.933333
0.482353 0.000000 0.933333
0.678431 0.000000 0.933333
0.858824 0.000000 0.933333
1.000000 0.000000 0.929412
1.000000 0.156863 0.925490
1.000000 0.341176 0.921569
1.000000 0.458824 0.917647
0.145098 0.113725 0.933333
0.298039 0.101961 0.933333
0.494118 0.070588 0.933333
0.678431 0.047059 0.933333
0.854902 0.066667 0.929412
0.996078 0.176471 0.925490
1.000000 0.305882 0.925490
1.000000 0.419608 0.921569
1.000000 0.509804 0.917647
0.203922 0.388235 0.929412
0.325490 0.388235 0.929412
0.501961 0.388235 0.925490
0.674510 0.396078 0.925490
0.843137 0.407843 0.925490
0.972549 0.443137 0.921569
1.000000 0.490196 0.917647
1.000000 0.549020 0.913725
1.000000 0.615686 0.913725
0.239216 0.623529 0.917647
0.341176 0.623529 0.917647
0.494118 0.623529 0.917647
0.666667 0.623529 0.917647
0.827451 0.627451 0.913725
0.945098 0.643137 0.913725
1.000000 0.670588 0.909804
1.000000 0.705882 0.909804
1.000000 0.741176 0.905882
0.309804 0.807843 0.905882
0.384314 0.803922 0.905882
0.517647 0.803922 0.905882
0.674510 0.800000 0.905882
0.811765 0.800000 0.905882
0.909804 0.803922 0.901961
0.984314 0.815686 0.901961
1.000000 0.827451 0.901961
1.000000 0.843137 0.901961
0.482353 0.913725 0.901961
0.525490 0.913725 0.901961
0.611765 0.909804 0.901961
0.717647 0.905882 0.901961
0.819608 0.901961 0.901961
0.901961 0.901961 0.901961
0.968627 0.901961 0.901961
1.000000 0.905882 0.901961
1.000000 0.913725 0.901961
0.643137 0.972549 0.901961
0.666667 0.972549 0.901961
0.713725 0.968627 0.901961
0.776471 0.968627 0.901961
0.843137 0.964706 0.901961
0.905882 0.960784 0.901961
0.964706 0.960784 0.901961
1.000000 0.960784 0.905882
1.000000 0.964706 0.905882
0.749020 1.000000 0.905882
0.760784 1.000000 0.905882
0.788235 1.000000 0.905882
0.827451 1.000000 0.909804
0.874510 1.000000 0.909804
0.925490 1.000000 0.909804
0.972549 1.000000 0.909804
1.000000 0.996078 0.909804
1.000000 0.996078 0.913725
0.839216 1.000000 0.917647
0.847059 1.000000 0.917647
0.862745 1.000000 0.917647
0.890196 1.000000 0.917647
0.921569 1.000000 0.921569
0.960784 1.000000 0.921569
0.996078 1.000000 0.921569
1.000000 1.000000 0.921569
1.000000 1.000000 0.925490
0.407843 0.000000 1.000000
0.474510 0.000000 1.000000
0.600000 0.000000 1.000000
0.745098 0.000000 1.000000
0.898039 0.000000 1.000000
1.000000 0.000000 0.996078
1.000000 0.211765 0.992157
1.000000 0.368627 0.988235
1.000000 0.478431 0.984314
0.423529 0.082353 1.000000
0.486275 0.070588 1.000000
0.603922 0.058824 1.000000
0.749020 0.058824 1.000000
0.894118 0.109804 0.996078
1.000000 0.219608 0.996078
1.000000 0.337255 0.992157
1.000000 0.439216 0.988235
1.000000 0.529412 0.984314
0.435294 0.388235 0.996078
0.490196 0.388235 0.996078
0.600000 0.396078 0.996078
0.741176 0.403922 0.992157
0.878431 0.419608 0.992157
0.984314 0.454902 0.988235
1.000000 0.505882 0.984314
1.000000 0.564706 0.980392
1.000000 0.627451 0.976471
0.431373 0.623529 0.984314
0.482353 0.623529 0.984314
0.592157 0.623529 0.984314
0.729412 0.627451 0.984314
0.854902 0.631373 0.980392
0.952941 0.650980 0.980392
1.000000 0.678431 0.976471
1.000000 0.713725 0.972549
1.000000 0.749020 0.968627
0.462745 0.803922 0.972549
0.509804 0.803922 0.972549
0.603922 0.800000 0.972549
0.721569 0.800000 0.972549
0.831373 0.800000 0.968627
0.917647 0.807843 0.968627
0.984314 0.815686 0.968627
1.000000 0.831373 0.964706
1.000000 0.843137 0.964706
0.572549 0.909804 0.964706
0.600000 0.909804 0.964706
0.666667 0.905882 0.964706
0.752941 0.901961 0.964706
0.831373 0.901961 0.964706
0.905882 0.901961 0.964706
0.964706 0.901961 0.960784
1.000000 0.905882 0.960784
1.000000 0.913725 0.960784
0.686275 0.968627 0.960784
0.701961 0.968627 0.960784
0.741176 0.968627 0.960784
0.792157 0.964706 0.960784
0.850980 0.964706 0.960784
0.909804 0.960784 0.960784
0.960784 0.960784 0.960784
1.000000 0.960784 0.960784
1.000000 0.964706 0.960784
0.764706 1.000000 0.960784
0.776471 1.000000 0.960784
0.800000 1.000000 0.960784
0.835294 1.000000 0.960784
0.878431 1.000000 0.960784
0.925490 1.000000 0.964706
0.968627 0.996078 0.964706
1.000000 0.996078 0.964706
1.000000 0.996078 0.964706
0.847059 1.000000 0.968627
0.850980 1.000000 0.968627
0.866667 1.000000 0.968627
0.890196 1.000000 0.968627
0.921569 1.000000 0.968627
0.956863 1.000000 0.968627
0.988235 1.000000 0.968627
1.000000 1.000000 0.972549
1.000000 1.000000 0.972549
0.592157 0.000000 1.000000
0.627451 0.000000 1.000000
0.709804 0.000000 1.000000
0.827451 0.000000 1.000000
0.945098 0.000000 1.000000
1.000000 0.035294 1.000000
1.000000 0.266667 1.000000
1.000000 0.400000 1.000000
1.000000 0.498039 1.000000
0.592157 0.070588 1.000000
0.631373 0.070588 1.000000
0.713725 0.070588 1.000000
0.827451 0.090196 1.000000
0.937255 0.164706 1.000000
1.000000 0.266667 1.000000
1.000000 0.368627 1.000000
1.000000 0.458824 1.000000
1.000000 0.545098 1.000000
0.588235 0.396078 1.000000
0.627451 0.400000 1.000000
0.705882 0.403922 1.000000
0.811765 0.415686 1.000000
0.917647 0.435294 1.000000
1.000000 0.474510 1.000000
1.000000 0.521569 1.000000
1.000000 0.580392 1.000000
1.000000 0.643137 1.000000
0.584314 0.623529 1.000000
0.619608 0.623529 1.000000
0.694118 0.627451 1.000000
0.796078 0.631373 1.000000
0.890196 0.639216 1.000000
0.964706 0.658824 1.000000
1.000000 0.690196 1.000000
1.000000 0.721569 1.000000
1.000000 0.756863 1.000000
0.596078 0.803922 1.000000
0.627451 0.800000 1.000000
0.694118 0.800000 1.000000
0.776471 0.800000 1.000000
0.858824 0.803922 1.000000
0.929412 0.811765 1.000000
0.988235 0.819608 1.000000
1.000000 0.831373 1.000000
1.000000 0.847059 1.000000
0.658824 0.905882 1.000000
0.678431 0.905882 1.000000
0.725490 0.901961 1.000000
0.788235 0.901961 1.000000
0.854902 0.901961 1.000000
0.913725 0.901961 1.000000
0.968627 0.901961 1.000000
1.000000 0.905882 1.000000
1.000000 0.913725 1.000000
0.729412 0.968627 1.000000
0.745098 0.968627 1.000000
0.772549 0.964706 1.000000
0.815686 0.964706 1.000000
0.866667 0.960784 1.000000
0.917647 0.960784 1.000000
0.964706 0.960784 1.000000
1.000000 0.960784 1.000000
1.000000 0.968627 0.996078
0.792157 1.000000 0.996078
0.800000 1.000000 0.996078
0.819608 1.000000 0.996078
0.850980 1.000000 0.996078
0.890196 1.000000 0.996078
0.929412 1.000000 0.996078
0.968627 0.996078 0.996078
0.996078 0.996078 0.996078
1.000000 0.996078 0.996078
0.862745 1.000000 0.996078
0.866667 1.000000 0.996078
0.882353 1.000000 0.996078
0.901961 1.000000 0.996078
0.929412 1.000000 0.996078
0.960784 1.000000 0.996078
0.988235 1.000000 0.996078
1.000000 1.000000 0.996078
1.000000 1.000000 0.996078
0.741176 0.000000 1.000000
0.768627 0.000000 1.000000
0.827451 0.000000 1.000000
0.909804 0.000000 1.000000
0.992157 0.000000 1.000000
1.000000 0.176471 1.000000
1.000000 0.321569 1.000000
1.000000 0.431373 1.000000
1.000000 0.525490 1.000000
0.741176 0.086275 1.000000
0.768627 0.090196 1.000000
0.823529 0.105882 1.000000
0.905882 0.152941 1.000000
0.984314 0.223529 1.000000
1.000000 0.317647 1.000000
1.000000 0.403922 1.000000
1.000000 0.486275 1.000000
1.000000 0.568627 1.000000
0.733333 0.411765 1.000000
0.756863 0.411765 1.000000
0.811765 0.419608 1.000000
0.886275 0.431373 1.000000
0.960784 0.458824 1.000000
1.000000 0.494118 1.000000
1.000000 0.541176 1.000000
1.000000 0.600000 1.000000
1.000000 0.658824 1.000000
0.721569 0.627451 1.000000
0.741176 0.627451 1.000000
0.792157 0.631373 1.000000
0.862745 0.639216 1.000000
0.929412 0.650980 1.000000
0.988235 0.674510 1.000000
1.000000 0.701961 1.000000
1.000000 0.733333 1.000000
1.000000 0.764706 1.000000
0.713725 0.800000 1.000000
0.733333 0.800000 1.000000
0.776471 0.800000 1.000000
0.835294 0.803922 1.000000
0.894118 0.807843 1.000000
0.952941 0.815686 1.000000
1.000000 0.823529 1.000000
1.000000 0.839216 1.000000
1.000000 0.854902 1.000000
0.741176 0.901961 1.000000
0.756863 0.901961 1.000000
0.788235 0.901961 1.000000
0.831373 0.901961 1.000000
0.886275 0.901961 1.000000
0.937255 0.901961 1.000000
0.984314 0.905882 1.000000
1.000000 0.909804 1.000000
1.000000 0.917647 1.000000
0.780392 0.964706 1.000000
0.792157 0.964706 1.000000
0.815686 0.964706 1.000000
0.850980 0.964706 1.000000
0.890196 0.960784 1.000000
0.933333 0.960784 1.000000
0.976471 0.960784 1.000000
1.000000 0.964706 1.000000
1.000000 0.968627 1.000000
0.827451 1.000000 1.000000
0.835294 1.000000 1.000000
0.850980 1.000000 1.000000
0.878431 1.000000 1.000000
0.909804 1.000000 1.000000
0.945098 1.000000 1.000000
0.980392 0.996078 1.000000
1.000000 0.996078 1.000000
1.000000 0.996078 1.000000
0.886275 1.000000 1.000000
0.890196 1.000000 1.000000
0.901961 1.000000 1.000000
0.921569 1.000000 1.000000
0.945098 1.000000 1.000000
0.972549 1.000000 1.000000
0.992157 1.000000 1.000000
1.000000 1.000000 1.000000
1.000000 1.000000 1.000000
